!!!COM: Scriabin, Alexander
!!!OTL: Sonata No. 6
!!!OPS: 62
!!!ODT: 1911–1912
!!!AGN: Sonata
**kern	**kern	**kern
*staff3	*staff2	*staff1
*clefF4	*clefF4	*clefG2
*k[]	*k[]	*k[]
*M3/4	*M3/4	*M3/4
=1	=1	=1
.	[8qDD/ 8qGG [8qF	8qB-X/
*	*^	*
2.r	2.DD] 2.AA-X 2.F]	4rEE	2.Bn 2.f 2.cc#X
.	.	16DDDKL 16DD	.
.	.	8.DDDJ 8.DD	.
.	.	4rEE	.
*	*v	*v	*
=2	=2	=2
2.r	4r	4r
.	4DD 4AAn 4F	4B 4f 4cc#X
.	4DD 4AA-X 4F	4B-X
=3	=3	=3
2.r	8DD 8GG 8F	24BnLL
.	.	24cc#XJ
.	.	24r
.	8r	24bL
.	.	24g
.	.	24fJJ
.	[2DD [2AA-X [2F	[2c#X
=4	=4	=4
2.r	4.DD] 4.AA-] 4.F]	4.c#]
.	4DD 4AA-X 4F	4c#X
.	8DD 8AA- 8F	8cn
=5	=5	=5
*	*^	*
2.r	[2.DD [2.F	4.AAn	[2.B [2.f [2.cc#X
.	.	8GG#X	.
.	.	[4AA	.
=6	=6	=6	=6
2.r	4.DD] 4.F]	4.AA]	4.B] 4.f] 4.cc#]
.	4.DD 4.F	4AA	4c#X
.	.	8AA-X	8cn
=7	=7	=7	=7
2.r	[2.DD [2.F	4.AAn	[2.B [2.f [2.cc#X
.	.	8GG#X	.
.	.	[4AA	.
=8	=8	=8	=8
2.r	8DD] 8F]	8AA]	8B] 8f] 8cc#]
.	8rc	8rEE	8r
.	4DD 4AA 4F	4rEE	4B 4f 4cc#X
.	4DD 4AA-X 4F	4rEE	4B-X
*	*v	*v	*
=9	=9	=9
2.r	16GGLL 16F	24BnLL
.	.	24cc#XJ
.	16DDJJ	.
.	.	24r
.	8r	24bL
.	.	24g
.	.	24fJJ
.	16EE#XLL 16D	2G#X 2c#X
.	16BBBJJ	.
.	8r	.
.	16BBBLL	.
.	16BBBBJJ	.
.	8r	.
=10	=10	=10
2.r	16BB-XLL 16A-X	24dLL
.	.	24eeJ
.	16FFJJ	.
.	.	24r
.	8r	24ddL
.	.	24b-X
.	.	24a-XJJ
.	16GG#XLL 16F	2Bn 2e
.	16DDJJ	.
.	8r	.
.	16DDLL	.
.	16DDDJJ	.
.	8r	.
=11	=11	=11
*	*	*^
*	*	*	*^
2.r	16D-XLL 16c-X	6f	4rc	[2.f\
.	16AA-XJJ	.	.	.
.	8r	.	.	.
.	.	[12g	.	.
.	16FLL 16c-	6g]	6rc	.
.	16GGJJ	.	.	.
.	8r	.	.	.
.	.	12a-X	[12a-	.
.	4r	12b-XL	4a-]	.
.	.	12cc-X	.	.
.	.	12dd-XJ	.	.
=12	=12	=12	=12	=12
2.r	16FnLL 16c-X	12ff-XL	4a-X	8f\]
.	16DD-XJJ 16GG	.	.	.
.	.	12ee-X	.	.
.	8r	.	.	8r
.	.	12ee--J	.	.
.	[8qDD-/ [8qGG	.	.	.
.	2DD-] 2GG] 2F 2c-	[4b-X	4rc	2e--\
.	.	12b-L]	4rc	.
.	.	12b--	.	.
.	.	12a-J	.	.
*	*	*	*v	*v
=13	=13	=13	=13
*	*^	*	*
2.r	16AA-XKL	4AA-	8f-XL	4Fn 4c-X
.	8DD-X	.	.	.
.	.	.	8e-XJ	.
.	16DD-Jk	.	.	.
.	8qGG/	.	.	.
.	16AA-KL	4AA-	8e--L	2F 2B-X
.	8DD-	.	.	.
.	.	.	[8d-XJ	.
.	16DD-Jk	.	.	.
.	16GGKL	4GG	12d-L]	.
.	8DD-	.	.	.
.	.	.	12f-X	.
.	.	.	12gJ	.
.	[16DD-Jk	.	.	.
*	*	*	*v	*v
=14	=14	=14	=14
2.r	12DD-L] 12GG-X 12F-X 12B-X 12f-X	4rD	[2b-X
.	24DD-XL	.	.
.	24GG-	.	.
.	24F-	.	.
.	24B-JJ	.	.
.	4a-X	4rEE	.
.	12a-L	12rEE	12b-]
.	12a--	12rEE	12r
.	12DD-J 12F-	24GG-LL	12B-X
.	.	24GGnJJ	.
=15	=15	=15	=15
2.r	2.DDn 2.AA-X 2.Fn	4rEE	2.Bn 2.fn 2.cc#X
.	.	16DDDKL 16DD	.
.	.	8.DDDJ 8.DD	.
.	.	4rEE	.
*	*v	*v	*
=16	=16	=16
2.r	4r	4r
.	4DD 4AAn 4F	4B 4f 4cc#X
.	4DD 4AA-X 4F	4B-X
=17	=17	=17
2.r	8DD 8GG 8F	24BnLL
.	.	24cc#XJ
.	.	24r
.	8r	24bL
.	.	24g
.	.	24fJJ
.	[2DD [2AA-X [2F	[2c#X
=18	=18	=18
2.r	4.DD] 4.AA-] 4.F]	4.c#]
.	4DD 4AA-X 4F	4c#X
.	8DD 8AA- 8F	8cn
=19	=19	=19
*	*^	*
2.r	[2.DD [2.F	4.AAn	[2.B [2.f [2.cc#X
.	.	8GG#X	.
.	.	[4AA	.
=20	=20	=20	=20
2.r	4.DD] 4.F]	4.AA]	4.B] 4.f] 4.cc#]
.	4.DD 4.F	4AA	4c#X
.	.	8AA-X	8cn
=21	=21	=21	=21
2.r	[2.DD [2.F	4.AAn	[2.B [2.f [2.cc#X
.	.	8GG#X	.
.	.	[4AA	.
=22	=22	=22	=22
2.r	8DD] 8F]	8AA]	8B] 8f] 8cc#]
.	8rc	8rEE	8r
.	4DD 4AA 4F	4rEE	4B 4f 4cc#X
.	4DD 4AA-X 4F	4rEE	4B-X
*	*v	*v	*
=23	=23	=23
2.r	16GGLL 16F	24BnLL
.	.	24cc#XJ
.	16DDJJ	.
.	.	24r
.	8r	24bL
.	.	24g
.	.	24fJJ
.	16EE#XLL 16D	2G#X 2c#X
.	16BBBJJ	.
.	8r	.
.	16BBBLL	.
.	16BBBBJJ	.
.	8r	.
=24	=24	=24
2.r	16BB-XLL 16A-X	24dLL
.	.	24eeJ
.	16FFJJ	.
.	.	24r
.	8r	24ddL
.	.	24b-X
.	.	24a-XJJ
.	8r	8e
.	4FF 4C-X	4A-X 4e
.	8FF 8C-	8A- 8e-X
=25	=25	=25
2.r	16BB-XLL 16A-X	24dLL
.	.	24eenJ
.	16FFJJ	.
.	.	24r
.	8r	24ddL
.	.	24b-X
.	.	24a-XJJ
.	16GG#XLL 16F	2Bn 2e
.	16DDJJ	.
.	8r	.
.	16DDLL	.
.	16DDDJJ	.
.	8r	.
=26	=26	=26
2.r	16D-XLL 16c-X	24fLL
.	.	24ggJ
.	16AA-XJJ	.
.	.	24r
.	8r	24ffL
.	.	24dd-X
.	.	24cc-XJJ
.	12r	12g
.	6AA- 6E--	6c-X 6g
.	6AA- 6E--	6c- 6g
.	12AA- 12E--	12c- 12g-X
=27	=27	=27
*M9/8	*M9/8	*M9/8
*	*^	*^
*	*	*	*	*^
8%9r	4.e-X	16e-LL	4f	4rc	[2.f\
.	.	16c-X	.	.	.
.	.	16D-X	.	.	.
.	.	16AA-XJJ	.	.	.
.	.	8rEE	[8gn	8rc	.
.	4.e-	16e-LL	4g]	4rc	.
.	.	16c-	.	.	.
.	.	16F	.	.	.
.	.	16GGJJ	.	.	.
.	.	8rEE	8a-X	[8a-	.
.	4.e--	16e--LL	8b-XL	4.a-]	4.f\_
.	.	16c-	.	.	.
.	.	16F	8cc-X	.	.
.	.	16GGJJ	.	.	.
.	.	8rEE	8dd-XJ	.	.
=28	=28	=28	=28	=28	=28
8%9r	4.cc-X	16cc-LL	8ff-XL	4.a-X	8fn\]
.	.	16fn	.	.	.
.	.	16c-X	8ee-X	.	8r
.	.	16Fn	.	.	.
.	.	16GG	8ee--J	.	8r
.	.	16DD-XJJ	.	.	.
.	8rc	8rEE	[4.b-X	4rc	2.e--\
.	16DD-LL	4rEE	.	.	.
.	16GG	.	.	.	.
.	16F	.	.	8rc	.
.	16c-JJ	.	.	.	.
.	8f	4rEE	8b-L]	4rc	.
.	8rc	.	8b--	.	.
.	8rc	8rEE	8a-J	8rc	.
*	*v	*v	*	*	*
*	*	*v	*v	*v
=29	=29	=29
*M3/4	*M3/4	*M3/4
*	*^	*^
2.r	16AA-XKL	4AA-	8f-XL	4Fn 4c-X
.	8DD-X	.	.	.
.	.	.	8e-XJ	.
.	16DD-Jk	.	.	.
.	8qGG/	.	.	.
.	16AA-KL	4AA-	8e--L	2F 2B-X
.	8DD-	.	.	.
.	.	.	[8d-XJ	.
.	16DD-Jk	.	.	.
.	16GGKL	4GG	12d-L]	.
.	8DD-	.	.	.
.	.	.	12f-X	.
.	.	.	12gJ	.
.	[16DD-Jk	.	.	.
*	*v	*v	*	*
=30	=30	=30	=30
2.r	12DD-] 12GG-X 12F-X	4b-X	8B-X 8f-X
.	24DD-XLL	.	.
.	24GG-	.	8rc
.	24F-	.	.
.	24B-XJJ	.	.
.	4.a-X	2f- 2dd-X	4rc
.	.	.	4rc
.	8a--	.	.
*	*	*v	*v
=31	=31	=31
*M9/8	*M9/8	*M9/8
*	*^	*^
*	*	*	*	*^
8%9r	4.c#X	16c#LL	4d#X	4rc	[2.d#\
.	.	16An	.	.	.
.	.	16BBn	.	.	.
.	.	16FF#XJJ	.	.	.
.	.	8rEE	[8e#X	8rc	.
.	4.c#	16c#LL	4e#]	4rc	.
.	.	16A	.	.	.
.	.	16D#X	.	.	.
.	.	16EE#XJJ	.	.	.
.	.	8rEE	8f#X	[8f#	.
.	4.cn	16cLL	8g#XL	4.f#]	4.d#\_
.	.	16A	.	.	.
.	.	16D#	8a	.	.
.	.	16EE#JJ	.	.	.
.	.	8rEE	8bJ	.	.
=32	=32	=32	=32	=32	=32
8%9r	4.a	16aLL	8ddnL	4.f#X	8d#\]
.	.	16d#X	.	.	.
.	.	16A	8cc#X	.	8r
.	.	16D#X	.	.	.
.	.	16EE#X	8ccnJ	.	8r
.	.	16BBBJJ	.	.	.
.	8rc	8rEE	[4.g#X	4rc	2.c\
.	16BBBLL	4rEE	.	.	.
.	16EE#	.	.	.	.
.	16D#	.	.	8rc	.
.	16AJJ	.	.	.	.
.	8d#	4rEE	8g#L]	4rc	.
.	8rc	.	8gn	.	.
.	8rc	8rEE	8f#J	8rc	.
*	*v	*v	*	*	*
*	*	*v	*v	*v
=33	=33	=33
*M3/4	*M3/4	*M3/4
*	*^	*^
2.r	16FF#XKL	4FF#	8dnL	4D#X 4A
.	8BBB	.	.	.
.	.	.	8c#XJ	.
.	16BBBJk	.	.	.
.	8qEE#X/	.	.	.
.	16FF#KL	4FF#	8cnL	2D# 2G#X
.	8BBB	.	.	.
.	.	.	[8BJ	.
.	16BBBJk	.	.	.
.	16EE#KL	4EE#	12BL]	.
.	8BBB	.	.	.
.	.	.	12dn	.
.	.	.	12e#XJ	.
.	[16BBBJk	.	.	.
*	*v	*v	*	*
=34	=34	=34	=34
2.r	12BBB] 12EEn 12Dn	4g#X	8G#X 8d
.	24BBBLL	.	.
.	24EE	.	8rc
.	24D	.	.
.	24G#XJJ	.	.
.	4.f#X	2d 2cc#X	4rc
.	.	.	4rc
.	8fn	.	.
=35	=35	=35	=35
*	*^	*	*
2.r	16FFKL	4FF	8d-XL	4Dn 4A-X
.	8BBB-X	.	.	.
.	.	.	8cnJ	.
.	16BBB-Jk	.	.	.
.	8qEE/	.	.	.
.	16FFKL	4FF	8c-XL	2D 2Gn
.	8BBB-	.	.	.
.	.	.	[8B-XJ	.
.	16BBB-Jk	.	.	.
.	16EEKL	4EE	12B-L]	.
.	8BBB-	.	.	.
.	.	.	12d-X	.
.	.	.	12eJ	.
.	[16BBB-Jk	.	.	.
*	*v	*v	*	*
=36	=36	=36	=36
2.r	12BBB-] 12EE-X 12D-X	4g	8G 8d-X
.	24BBB-XLL	.	.
.	24EE-	.	8rc
.	24D-	.	.
.	24GJJ	.	.
.	4.f	2d-X 2dd-X	4rc
.	.	.	4rc
.	8f-X	.	.
*	*	*v	*v
=37	=37	=37
*	*^	*
2.r	4rc	12rEE	4r
.	.	24BBB--LL	.
.	.	24EE-X	.
.	.	24D-X	.
.	.	24GJJ	.
.	4rc	4.fn	2d-X 2dd-X
.	4d-X	.	.
.	.	8f-X	.
=38	=38	=38	=38
2.r	4e--	12rEE	4r
.	.	24AAA-XLL	.
.	.	24FF-X	.
.	.	36BB-X	.
.	.	36E--	.
.	.	36A-XJJ	.
.	4d-X	4.g-X	4d-X 4dd-X
.	4B-X	.	4r
.	.	8fn	.
=39	=39	=39	=39
2.r	2c-X	2c-	4r
.	.	.	[8qf/
.	.	.	2f_ [2dd-X
.	4rc	4D-X	.
*	*v	*v	*
=40	=40	=40
2.r	4AA-X	8f] 8dd-]
.	.	4ee--
.	4r	.
.	.	4ff
.	4r	.
.	.	8gg
=41	=41	=41
.	.	8qee--/
*	*	*^
2.r	4r	[2.bb-X	4rc
.	[16qqCC-X/LL	.	.
.	[16qqC-X/JJ	.	.
.	2C-] 2F	.	2e-- 2b-X
=42	=42	=42	=42
2.r	2C-X 2F	2.bb-]	2e-- 2b-X
.	4C- 4F	.	4e-- 4b--
=43	=43	=43	=43
.	.	.	[8qa-X\
*	*^	*	*
2.r	4rc	4rEE	2gg	2.a-_
.	[8qcn/	.	.	.
.	2c]	4d	.	.
.	.	4A-X	[4gg-X	.
=44	=44	=44	=44	=44
2.r	4rc	4BB-X	4gg-]	8a-]
.	.	.	.	8rc
.	16qqc/LL	.	.	.
.	16qqcc/	.	.	.
.	16qqa-X/	.	.	.
.	16qqd/JJ	.	.	.
.	4c	4rEE	4.ff	4rc
.	4c-X	4rEE	.	4rc
.	.	.	8ff-X	.
=45	=45	=45	=45	=45
.	[8qcn/	.	.	[8qa-X\
2.r	2c]	4BB-X 4G-X 4f-X	4aa-X	2.a-_
.	.	4rEE	4ee-X	.
.	4e-X	4rEE	4raa	.
=46	=46	=46	=46	=46
2.r	4f-X	4.BB-X 4.G-X 4.c	2raa	4a-]
.	4e-X	.	.	4rc
.	.	8rEE	.	.
.	4c	4rEE	4raa	4rc
*	*	*	*v	*v
=47	=47	=47	=47
2.r	2d-X	2d-	4r
.	.	.	[8qgn/
.	.	.	2g_ [2ee-X
.	4rc	4E-X	.
*	*v	*v	*
=48	=48	=48
2.r	4BB-X	8g] 8ee-]
.	.	4ff-X
.	4r	.
.	.	4gg
.	4r	.
.	.	8aa
=49	=49	=49
.	.	8qeen/
*	*	*^
2.r	4r	[2.ccc	4rc
.	16qq[AAA/LL	.	.
.	[16qqAA/JJ	.	.
.	2AA] 2G	.	2c#X 2g
=50	=50	=50	=50
2.r	2AA 2G	4ccc]	2c#X 2g
.	.	2bb-X	.
.	4AA 4G	.	4c# 4g
=51	=51	=51	=51
2.r	16%3r	4bb-X	4rc
.	16%3c#X	.	.
.	.	16qqg/LL	[8qg\
.	.	[16qqcc#X/JJ	.
.	.	2cc#_ [2aa	2g_
.	16%3G	.	.
.	16%3AA	.	.
=52	=52	=52	=52
2.r	4EE	8cc#] 8aa]	8g]
.	.	4bb-X	4rc
.	4r	.	.
.	.	4ccc#X	4rc
.	4r	.	.
.	.	8ddd#X	8rc
=53	=53	=53	=53
2.r	12AAA 12AA 12G 12c#X 12b-X	8ff#X 8ccc#X 8fff#X	4rc
.	24AA-XLL	.	.
.	24F-X	8raa	.
.	24B-X	.	.
.	24e--JJ	.	.
.	8r	4raa	4.g-X
.	8e--	.	.
.	8d-XL	4raa	.
.	8B-J	.	8fn
=54	=54	=54	=54
*	*^	*	*
2.r	4.e--	12rEE	2raa	4rc
.	.	24AA-XLL	.	.
.	.	24F-X	.	.
.	.	24B-X	.	.
.	.	24e--JJ	.	.
.	.	8rEE	.	4.g-X
.	8rc	8e--	.	.
.	4rc	8d-XL	4raa	.
.	.	8B-J	.	8fn
*	*	*	*v	*v
=55	=55	=55	=55
2.r	4c-X	4rEE	4r
.	.	.	8qf/
.	4rc	8rEE	[2dd-X
.	.	8f	.
.	4rc	8c-L	.
.	.	8D-XJ	.
=56	=56	=56	=56
*	*	*	*^
2.r	2.ryy	8AA-X	8dd-]	4rc
.	.	8r	4ee--	.
.	.	4r	.	4b-X
.	.	.	4ff	.
.	.	4r	.	4e--
.	.	.	8gg	.
*	*v	*v	*	*
*	*	*v	*v
=57	=57	=57
*M5/8	*M5/8	*M5/8
3...r	3...r	8r
.	.	8dd-XL
.	.	8ee--
.	.	8ff
.	.	8ggJ
=58	=58	=58
*M3/4	*M3/4	*M3/4
.	.	8qee--/
*	*	*^
2.r	4r	[2.bb-X	4rc
.	[16qqCC-X/LL	.	.
.	[16qqC-X/JJ	.	.
.	2C-] 2F	.	2e-- 2b-X
=59	=59	=59	=59
2.r	2C-X 2F	2.bb-]	2e-- 2b-X
.	4C- 4F	.	4e-- 4b--
*	*	*v	*v
=60	=60	=60
.	.	8qa-X/
*	*^	*
2.r	4rc	4rEE	2gg
.	2cn	8rEE	.
.	.	8a-X	.
.	.	8dL	[4gg-X
.	.	8A-XJ	.
=61	=61	=61	=61
2.r	4rc	4BB-X	4gg-]
.	16qqc/LL	.	.
.	16qqcc/	.	.
.	16qqa-X/	.	.
.	16qqd/JJ	.	.
.	4c	4rEE	4.ff
.	4c-X	4rEE	.
.	.	.	8ff-X
=62	=62	=62	=62
.	[8qcn/	.	8qa-X/
2.r	2c]	4BB-X 4G-X 4f-X	4aa-X
.	.	4rEE	4ee-X
.	.	.	8qa-/
.	4rc	4BB- 4A-X 4d	4ggn
*	*v	*v	*
=63	=63	=63
.	16qqc/LL	.
.	16qqcc/	.
.	16qqa-X/	.
.	16qqd/JJ	.
2.r	2c	4gg-X
.	.	4.ff
.	4c-X	.
.	.	8ff-X
=64	=64	=64
.	[8qcn/	8qa-X/
*	*^	*
2.r	4.c]	4BB-X 4G-X 4f-X	4aa-X
.	.	4rEE	4ee-X
.	8f-	.	.
.	8e-XL	4rEE	4r
.	8cJ	.	.
=65	=65	=65	=65
2.r	4.f-X	8rEE	2.r
.	.	8c	.
.	.	8G-XL	.
.	8f-	8BB-XJ	.
.	8e-XL	8BBB-X	.
.	8cJ	8rEE	.
=66	=66	=66	=66
2.r	4d-X	4rEE	4r
.	.	.	8qgn/
.	4rc	8rEE	[2ee-X
.	.	8g	.
.	4rc	8d-L	.
.	.	8E-XJ	.
=67	=67	=67	=67
*	*	*	*^
2.r	2.ryy	8BB-X	8ee-]	4rc
.	.	8r	4ff-X	.
.	.	4r	.	4cc
.	.	.	4gg	.
.	.	4r	.	4f-X
.	.	.	8aa	.
*	*v	*v	*	*
*	*	*v	*v
=68	=68	=68
*M5/8	*M5/8	*M5/8
3...r	3...r	8r
.	.	8ee-XL
.	.	8ff-X
.	.	8gg
.	.	8aaJ
=69	=69	=69
*M3/4	*M3/4	*M3/4
.	.	8qeen/
*	*	*^
2.r	4r	[2.ccc	4rc
.	[16qqAAA/LL	.	.
.	[16qqAA/JJ	.	.
.	2AA] 2G	.	2c#X 2g
=70	=70	=70	=70
2.r	2AA 2G	4ccc]	2c#X 2g
.	.	2bb-X	.
.	4AA 4G	.	4c# 4g
=71	=71	=71	=71
*	*^	*	*
2.r	2.ryy	4r	4bb-X	4rc
.	.	.	16qqg/LL	[8qg\
.	.	.	[16qqcc#X/JJ	.
.	.	8r	2cc#_ [2aa	2g_
.	.	8c#X	.	.
.	.	8GL	.	.
.	.	8AAJ	.	.
=72	=72	=72	=72	=72
2.r	4rc	8EE	8cc#] 8aa]	8g]
.	.	8rEE	4bb-X	4rc
.	4f#X	4rEE	.	.
.	.	.	4ccc#X	4rc
.	4B-X	4rEE	.	.
.	.	.	8ddd#X	8rc
*	*v	*v	*	*
*	*	*v	*v
=73	=73	=73
*M5/8	*M5/8	*M5/8
3...r	3...r	8r
.	.	8aaL
.	.	8bb-X
.	.	8ccc#X
.	.	8ddd#XJ
=74	=74	=74
*M3/4	*M3/4	*M3/4
.	.	8qbb-X/
*	*^	*
2.r	4rc	8DD#X 8AA 8G 8c#X	[2.fff#X
.	.	8rEE	.
.	[2A	4rEE	.
.	.	4rEE	.
=75	=75	=75	=75
2.r	8A]	2rEE	2fff#]
.	4B-X	.	.
.	4c#X	.	.
.	.	4rEE	4bb-X
.	8d#X	.	.
=76	=76	=76	=76
*	*	*	*^
2.r	8rc	4rEE	4raa	4rc
.	[8f#X	.	.	.
.	.	.	16qqg/LL	.
.	.	.	[16qqcc#X/JJ	[8qg\
.	2f#_	8rEE	2cc#_ [2aa	2g_
.	.	8c#X	.	.
.	.	8GL	.	.
.	.	8AAJ	.	.
=77	=77	=77	=77	=77
2.r	2f#]	8EE	8cc#] 8aa]	8g]
.	.	8rEE	4bb-X	4rc
.	.	4rEE	.	.
.	.	.	4ccc#X	4rc
.	4B-X	4rEE	.	.
.	.	.	8ddd#X	8rc
*	*	*	*v	*v
=78	=78	=78	=78
.	.	.	8qbb-X/
2.r	4rc	8DD#X 8AA 8G 8c#X	[2.fff#X
.	.	8rEE	.
.	[2A	4rEE	.
.	.	4rEE	.
=79	=79	=79	=79
2.r	8A]	2rEE	2fff#]
.	4B-X	.	.
.	4c#X	.	.
.	.	4rEE	4bb-X
.	8d#X	.	.
*	*v	*v	*
=80	=80	=80
2.r	[2.f#X	8r
.	.	4a
.	.	8b-X
.	.	8cc#XL
.	.	8dd#XJ
=81	=81	=81
2.r	2.f#_	32aLLL
.	.	32b-X
.	.	32cc#X
.	.	32dd#XJ
.	.	16ff#XJJ
.	.	16r
.	.	4r
.	.	4r
=82	=82	=82
*M3/8	*M3/8	*M3/8
4.r	4f#]	4r
.	8r	80e-XLLLL
.	.	80f-X
.	.	80g
.	.	80a
.	.	80ccnJJJJ
.	.	16r
=83	=83	=83
4.r	16D#X 16c#X 16g	80aLLLL
.	.	80b-X
.	.	80cc#X
.	.	80dd#X
.	.	80ff#XJJJJ
.	16r	16r
.	8r	80ee-XLLLL
.	.	80ff-X
.	.	80gg
.	.	80aa
.	.	80cccnJJJJ
.	.	16r
.	8qA/ 8qB-X 8qc#X 8qd 8qf#X	32qqa/LLL
.	.	32qqb-/
.	.	32qqcc#X/
.	.	32qqdd#/
.	.	32qqff#X/JJJ
.	8D#	32aaLLL
.	.	32bb-X
.	.	32ccc#X
.	.	32ddd#XJJJ
=84	=84	=84
*	*^	*
4.r	16rc	8AA 8G 8c#X 8b-X	8ff#X 8fff#X
.	8B-XL	.	.
.	.	8rEE	8r
.	8c#X	.	.
.	.	8rEE	8r
.	16d#XJk	.	.
=85	=85	=85	=85
4.r	[4.f#X	[4.CCn [4.Cn [4.B-X [4.e	16r
.	.	.	8dd-XL
.	.	.	8ee
.	.	.	16ff#XJk
=86	=86	=86	=86
4.r	8f#]	8CC] 8C] 8B-] 8e]	[8aaL
.	8rc	8rEE	16aaJk]
.	.	.	16r
.	8rc	8rEE	80cLLLL
.	.	.	80d-X
.	.	.	80e
.	.	.	80f#X
.	.	.	80aJJJJ
.	.	.	16r
*	*v	*v	*
=87	=87	=87
4.r	16BB#X 16A#X 16e	80f#XLLLL
.	.	80g
.	.	80a#X
.	.	80b#X
.	.	80dd#XJJJJ
.	16r	16r
.	8r	80ccLLLL
.	.	80dd-X
.	.	80ee
.	.	80ff#X
.	.	80aanJJJJ
.	.	16r
.	8qF#X/ 8qG 8qA# 8qB#X 8qd#X	32qqf#X/LLL
.	.	32qqg/
.	.	32qqa#X/
.	.	32qqb#X/
.	.	32qqdd#X/JJJ
.	8BB#	32ff#XLLL
.	.	32gg
.	.	32aa#X
.	.	32bb#XJJJ
=88	=88	=88
*	*	*^
4.r	8AAn 8G 8c#X 8b-X	8dd#X 8ddd#X	16rc
.	.	.	8B-XL
.	8r	8raa	.
.	.	.	8c#X
.	8r	8raa	.
.	.	.	16d#XJk
=89	=89	=89	=89
4.r	4.CCn 4.Cn	[4.f#X	4.B-X 4.e
=90	=90	=90	=90
4.r	4.AAA 4.AA	4.f#]	4.G 4.c#X
=91	=91	=91	=91
4.r	4.CCn 4.Cn	4.g	4.B-X 4.e
*	*	*v	*v
=92	=92	=92
*M2/8	*M2/8	*M2/8
4r	8AA 8G	8B-XL 8c#X 8d#X 8f#X
.	8r	8B-J 8c# 8d# 8f# 8g
=93	=93	=93
.	.	[8qf#X/
4r	8Cn 8B-X	8d-XL 8e 8f#] 8a 8ccn
.	8r	8d-J 8e 8f# 8a 8b-X
=94	=94	=94
4r	8C 8B-X	8d-XL 8e 8f#X 8a
.	8r	8d-J 8e 8f# 8a 8b-X
=95	=95	=95
.	.	[8qa/
4r	8E-X 8d-X	8f-XL 8g 8a] 8cc 8ee-X
.	8r	8f-J 8g 8a 8cc 8dd-X
=96	=96	=96
*	*^	*
4r	24rc	8AA 8G 8c#X	8b-XL 8cc#X 8dd#X 8ff#X
.	24B-XLL	.	.
.	24c#JJ	.	.
.	24d#XLL	8rEE	8b-J 8cc# 8dd# 8ff# 8gg
.	24f#XJJ	.	.
.	24rc	.	.
=97	=97	=97	=97
.	.	.	[8qff#X/
4r	24rc	8Cn 8B-X 8e	8dd-XL 8ee 8ff#] 8aa 8cccn
.	24d-XLL	.	.
.	24eJJ	.	.
.	24f#XLL	8rEE	8dd-J 8ee 8ff# 8aa 8bb-X
.	24aJJ	.	.
.	24rc	.	.
=98	=98	=98	=98
4r	24rc	8C 8B-X 8e	8b-XL 8dd-X 8ee 8ff#X 8aa
.	24d-XLL	.	.
.	24eJJ	.	.
.	24f#XLL	8rEE	8dd-J 8ee 8ff# 8aa 8bb-X
.	24aJJ	.	.
.	24rc	.	.
=99	=99	=99	=99
.	.	.	[8qaa/
4r	24rc	8E-X 8d-X 8g	8ff-XL 8gg 8aa] 8ccc 8eee-X
.	24f-XLL	.	.
.	24gJJ	.	.
.	24aLL	8rEE	8ff-J 8gg 8aa 8ccc 8ddd-X
.	24ccJJ	.	.
.	24rc	.	.
*	*clefG2	*	*
=100	=100	=100	=100
.	.	.	[8qbb#X/
4r	24raa	8F#X 8en 8a#X	8ggL 8aa#X 8bb#] 8ddd#X 8fff#X
.	24gLL	.	.
.	24a#JJ	.	.
.	24b#XLL	8rc	8ggJ 8aa# 8bb# 8ddd# 8eeen
.	24dd#XJJ	.	.
.	24raa	.	.
=101	=101	=101	=101
.	.	.	[8qddd#X/
4r	24raa	8An 8g 8cc#X	8bb-XL 8ccc#X 8ddd#] 8fff#X 8aaan
.	24b-XLL	.	.
.	24cc#JJ	.	.
.	24dd#XLL	8rc	8bb-J 8ccc# 8ddd# 8fff# 8ggg
.	24ff#XJJ	.	.
.	24raa	.	.
*	*v	*v	*
=102	=102	=102
4r	8r	8r
.	8qf#X/ 8qg 8qa#X 8qb#X 8qdd#X	16qqff#X/LL
.	.	16qqgg/
.	.	16qqaa#X/
.	.	16qqbb#X/
.	.	16qqddd#X/JJ
.	[8B#X	8fff#X
=103	=103	=103
4r	8B#]	8fff#XL
.	8r	32fff#LL
.	.	32ggg
.	.	32aaa#X
.	.	32bbb#XJJJ
*	*clefF4	*
=104	=104	=104
4r	16AAn 16D#X 16B-X	16ddd#X 16fff#X 16bbb-X 16dddd#X
.	16r	32r
.	.	32d#X 32f#X 32b-X
.	40B-LLL	[8e [8g [8cc
.	40D#	.
.	40AA	.
.	40BB-X	.
.	40DD#XJJJ	.
=105	=105	=105
4r	40AAALLL	8eL] 8g] 8cc]
.	40DD#X	.
.	40BB-X	.
.	40FF#X	.
.	40CJJJ	.
.	[8d-X	[8f#XJ [8a [8dd-X
=106	=106	=106
4r	8d-]	8f#] 8a] 8dd-]
*	*clefG2	*
.	8qf#X/ 8qg 8qa#X 8qb#X 8qdd#X	16qqff#X/LL
.	.	16qqgg/
.	.	16qqaa#X/
.	.	16qqbb#X/
.	.	16qqddd#X/JJ
.	[8B#X	8fff#X
=107	=107	=107
4r	8B#]	8fff#XL
.	8r	32fff#LL
.	.	32ggg
.	.	32aaa#X
.	.	32bbb#XJJJ
*	*clefF4	*
=108	=108	=108
4r	16AA 16D#X 16B-X	16ddd#X 16fff#X 16bbb-X 16dddd#X
.	16r	32r
.	.	32d#X 32f#X 32b-X
.	40B-LLL	[8e [8g [8cc
.	40D#	.
.	40AA	.
.	40BB-X	.
.	40DD#XJJJ	.
=109	=109	=109
4r	40AAALLL	8eL] 8g] 8cc]
.	40DD#X	.
.	40BB-X	.
.	40FF#X	.
.	40CJJJ	.
.	[8d-X	8f#XJ 8a 8dd-X
=110	=110	=110
*	*^	*
4r	16d-KL]	8rEE	16gKL 16b-X 16ee-X
.	32r	.	32r
.	32B#XJkk	.	[32enJkk 32g##X 32b#X 32een
.	[8A#X	48A#LLL	8e_ [8a#X [8cc#X [8ff#X
.	.	48E	.
.	.	48GG##X	.
.	.	48DD#X	.
.	.	48EE	.
.	.	48GGG##XJJJ	.
=111	=111	=111	=111
4r	8A#L]	40DDD#XLLL	8eL] 8a#] 8cc#] 8ff#]
.	.	40GGG##X	.
.	.	40EE	.
.	.	40BBB#X	.
.	.	40FF#XJJJ	.
.	8AnJ	8rEE	[8gJ 8b#X 8dd#X 8gg
=112	=112	=112	=112
4r	16GKL	16rEE	16gKL] 16cc#X 16ee 16aa
.	32r	32rEE	32r
.	.	[8qAAA\ [8qDD#X	.
.	32F#XJkk 32f#X	32AAA_ 32DD#_	[32b-XJkk 32dd#X 32ff#X 32bb-X
.	[8E [8e	8AAA_ 8DD#_	8b-_ [8ee [8gg [8cccn
=113	=113	=113	=113
4r	4E_ 4e_	4AAA_ 4DD#_	4b-_ 4ee_ 4gg_ 4ccc_
=114	=114	=114	=114
4r	8E] 8e]	8AAA] 8DD#]	8b-] 8ee] 8gg] 8ccc]
.	8E 8e	8AAA 8DD#X 8BB-X	8r
=115	=115	=115	=115
4r	8EL 8e	8AAAL 8DD#X 8BB-X	4r
.	8EJ 8e	8AAAJ 8DD# 8BB-	.
=116	=116	=116	=116
4r	16EKL 16e	16AAAKL 16DD#X 16BB-X	16.r
.	32r	32r	.
.	.	[8qAAA\ [8qDD#	.
.	32F#XJkk 32f#X	32AAAJkk_ 32DD#_	[32b-X 32dd#X 32ff#X 32bb-X
.	[8E [8e	8AAA_ 8DD#_	8b-_ [8ee [8gg [8ccc
=117	=117	=117	=117
4r	4E_ 4e_	4AAA_ 4DD#_	4b-_ 4ee_ 4gg_ 4ccc_
=118	=118	=118	=118
4r	8E] 8e]	8AAA] 8DD#]	8b-] 8ee] 8gg] 8ccc]
.	8E 8e	8AAA 8DD#X 8BB-X	8r
=119	=119	=119	=119
4r	8EL 8e	8AAAL 8DD#X 8BB-X	4r
.	8EJ 8e	8AAAJ 8DD# 8BB-	.
=120	=120	=120	=120
4r	16EKL 16e	16AAAKL 16DD#X 16BB-X	16.r
.	32r	32r	.
.	.	[8qFFF#X\ [8qCC [8qGG [8qD-X	.
.	32AJkk 32a	32FFF#Jkk_ 32CC_ 32GG_ 32D-_	[32dd-X 32ff#X 32aa 32ddd-X
.	[8G [8g	8FFF#_ 8CC_ 8GG_ 8D-_	8dd-_ [8gg [8bb-X [8eee-X
=121	=121	=121	=121
4r	4G_ 4g_	4FFF#_ 4CC_ 4GG_ 4D-_	4dd-_ 4gg_ 4bb-_ 4eee-_
=122	=122	=122	=122
4r	4G_ 4g_	4FFF#_ 4CC_ 4GG_ 4D-_	4dd-_ 4gg_ 4bb-_ 4eee-_
=123	=123	=123	=123
4r	4G] 4g]	4FFF#] 4CC] 4GG] 4D-]	4dd-] 4gg] 4bb-] 4eee-]
*	*v	*v	*
=124	=124	=124
*M3/4	*M3/4	*M3/4
*	*^	*^
*	*	*	*	*^
2.r	16FF#XLL	4BBB#X 4FF#	24ELL	4rc	4r
.	.	.	24A#XJ 24f#X	.	.
.	16GG	.	.	.	.
.	.	.	24r	.	.
.	16AA#X	.	24eL	.	.
.	.	.	24B#X	.	.
.	16BB#XJJ	.	.	.	.
.	.	.	24A#JJ	.	.
.	20D#XLL	4rEE	8F#X	4rc	4r
.	20FF#	.	.	.	.
.	20GG	.	.	.	.
.	.	.	8raa	.	.
.	20AA#	.	.	.	.
.	20BB#JJ	.	.	.	.
*	*	*	*clefF4	*	*
.	20D#LL	4rEE	20rc	10.rEE	10r
.	[20CCJ [20FF#X	.	20CLL	.	.
.	10.CCJ_ 10.FF#_	.	20D-X	.	[10.D-\
.	.	.	20E	[10E	.
.	.	.	20F#JJ	.	.
*	*v	*v	*	*	*
=125	=125	=125	=125	=125
2.r	2.CC] 2.FF#]	2.An	2.E]	2.D-\]
*	*	*v	*v	*v
*	*	*clefG2
=126	=126	=126
2.r	8BBB#X 8FF#X 8E	40F#XLLL
.	.	40G
.	.	40A#X
.	.	40B#X
.	.	40d#XJJJ
.	8r	8r
.	8r	40cLLL
.	.	40d-X
.	.	40e
.	.	40f#X
.	.	40anJJJ
.	8FF# 8E 8A#X	8r
.	4r	40f#LLL
.	.	40g
.	.	40a#X
.	.	40b#X
.	.	40dd#XJJJ
.	.	8r
=127	=127	=127
2.r	8C 8B-X 8e	40ccLLL
.	.	40dd-X
.	.	40ee
.	.	40ff#X
.	.	40aaJJJ
.	8r	8r
.	8r	40ff#LLL
.	.	40gg
.	.	40aa#X
.	.	40bb#X
.	.	40ddd#XJJJ
.	8F#X 8e 8b-X	8r
.	4r	40cccLLL
.	.	40ddd-X
.	.	40eee
.	.	40fff#X
.	.	40aaanJJJ
.	.	8r
=128	=128	=128
*	*^	*^
*	*	*	*	*^
2.r	16BBLL	4CCn 4EE#X	24ALL	4rc	4r
.	.	.	24d#XJ 24b	.	.
.	16C	.	.	.	.
.	.	.	24r	.	.
.	16D#X	.	24aL	.	.
.	.	.	24e#X	.	.
.	16E#XJJ	.	.	.	.
.	.	.	24d#JJ	.	.
.	20G#XLL	4rEE	8B	4rc	4r
.	20BB	.	.	.	.
.	20C	.	.	.	.
.	.	.	8raa	.	.
.	20D#	.	.	.	.
.	20E#JJ	.	.	.	.
*	*	*	*clefF4	*	*
.	20G#LL	20rEE	20rc	10.rEE	10r
.	[20E-XJ	[20CC [20FFn	20FnLL	.	.
.	10.E-J_	10.CC_ 10.FF_	20G-X	.	[10.G-\
.	.	.	20A	[10A	.
.	.	.	20BJJ	.	.
=129	=129	=129	=129	=129	=129
2.r	2.E-]	2.CC] 2.FF]	2.d	2.A]	2.G-\]
*	*v	*v	*	*	*
*	*	*v	*v	*v
*	*	*clefG2
=130	=130	=130
2.r	8CC 8EE#X 8D#X 8A	40BLLL
.	.	40c
.	.	40d#X
.	.	40e#X
.	.	40g#XJJJ
.	8r	8r
.	8r	40fLLL
.	.	40g-X
.	.	40a
.	.	40b
.	.	40ddnJJJ
.	8BB 8A 8d#X	8r
.	4r	40bLLL
.	.	40cc
.	.	40dd#X
.	.	40ee#X
.	.	40gg#XJJJ
.	.	8r
=131	=131	=131
*	*^	*
2.r	8F 8e-X 8a	4rEE	40ffLLL
.	.	.	40gg-X
.	.	.	40aa
.	.	.	40bb
.	.	.	40dddnJJJ
.	8rc	.	8r
.	8rc	8rEE	40bbLLL
.	.	.	40ccc
.	.	.	40ddd#X
.	.	.	40eee#X
.	.	.	40ggg#XJJJ
*	*clefG2	*	*
.	8B 8a 8ee-X	8G-X	8r
.	4raa	8FL	40fffLLL
.	.	.	40ggg-X
.	.	.	40aaa
.	.	.	40bbb
.	.	.	40ddddnJJJ
.	.	8DJ	8r
*	*clefF4	*	*
=132	=132	=132	=132
2.r	2rc	2E-X	4r
.	.	.	[8qA/
.	.	.	2A_ [2f
.	4rc	4FF	.
=133	=133	=133	=133
2.r	4rc	4CC	8A] 8f]
.	.	.	4g-X
.	4d	4rEE	.
.	.	.	4a
.	4G-X	4rEE	.
.	.	.	8b
*	*v	*v	*
=134	=134	=134
*M5/8	*M5/8	*M5/8
3...r	3...r	8r
.	.	8fL
.	.	8g-X
.	.	8a
.	.	8bJ
=135	=135	=135
*M3/4	*M3/4	*M3/4
*	*	*^
2.r	4EE-X 4BB-- 4G-X	[2.dd	4d 4g-X
.	[8qEE-/ 8qAA-X [8qG-	.	.
.	2EE-] 2BB-- 2G-]	.	4rc
.	.	.	4g-
=136	=136	=136	=136
.	[8qEE-X/ 8qAA-X [8qG-X	.	[8qd\
2.r	2EE-] 2BB-- 2G-]	2dd]	2d]
.	[8qEE-/ 8qAA- [8qG-	.	[8qd-X\
.	4EE-] 4BB-- 4G-]	4raa	4d-]
*	*	*v	*v
=137	=137	=137
*	*^	*
2.r	4rc	16AA-XLL 16G-X	16cLL
.	.	16EE-XJJ	16ddnJJ
.	.	8rEE	8r
.	2G-X 2g-X	4rEE	12r
.	.	.	24r
.	.	.	24ccLL
.	.	.	24a-X
.	.	.	24g-XJJ
.	.	4EE- 4BB-- 4G-	6d
.	.	.	12d-X
=138	=138	=138	=138
2.r	4rc	8EE-X 8AA-X 8G-X	16cLL
.	.	.	16ddnJJ
.	.	8rEE	8r
.	2G-X 2g-X	4rEE	12r
.	.	.	24r
.	.	.	24ccLL
.	.	.	24a-X
.	.	.	24g-XJJ
.	.	4EE- 4BB-- 4G-	6d
.	.	.	12d-X
=139	=139	=139	=139
2.r	4rc	8EE-X 8AA-X 8G-X	24cLL
.	.	.	24ddnJ
.	.	.	24r
.	.	8rEE	24ccL
.	.	.	24a-X
.	.	.	24g-XJJ
.	24G-LL	4rEE	8d
.	24a-XJ	.	.
.	24r	.	.
.	24g-XL	.	8r
.	24d	.	.
.	24cJJ	.	.
.	8A-X	4rEE	24g-LL
.	.	.	24aa-XJ
.	.	.	24r
.	8rc	.	24gg-XL
.	.	.	24dd
.	.	.	24ccJJ
*	*v	*v	*
=140	=140	=140
*	*	*^
2.r	8EE-- 8AA-X 8G-X	8a-X	24cLL
.	.	.	24ddJ
.	.	.	24r
.	8r	8raa	24ccL
.	.	.	24a-X
.	.	.	24g-XJJ
.	4r	24ccLL	8d
.	.	24dddJ	.
.	.	24r	.
.	.	24cccL	8rc
.	.	24aa-X	.
.	.	24gg-XJJ	.
.	8r	8dd	8rc
.	8EE-- 8AA-	8raa	8G-X
=141	=141	=141	=141
*	*^	*	*^
2.r	16GGnLL	4CC#X	24FLL	4rc	4r
.	.	.	8qB/	.	.
.	.	.	24gnJ	.	.
.	16AA-X	.	.	.	.
.	.	.	24r	.	.
.	16BB	.	24fL	.	.
.	.	.	24c#X	.	.
.	16C#XJJ	.	.	.	.
.	.	.	24BJJ	.	.
.	20ELL	4rEE	4Gn	4rc	4r
.	20GG	.	.	.	.
.	20AA-	.	.	.	.
.	20BB	.	.	.	.
.	20C#JJ	.	.	.	.
*	*	*	*clefF4	*	*
.	20ELL	4rEE	20rc	10.rEE	10r
.	[20DD-XJ [20GG	.	20D-XLL	.	.
.	10.DD-J_ 10.GG_	.	20E--	.	[10.E--\
.	.	.	20F	[10F	.
.	.	.	20GJJ	.	.
*	*v	*v	*	*	*
=142	=142	=142	=142	=142
2.r	2.DD-] 2.GG]	2.B-X	2.F]	2.E--\]
*	*	*v	*v	*v
*	*	*clefG2
=143	=143	=143
2.r	8CC#X 8GG 8F	40GLLL
.	.	40A-X
.	.	40Bn
.	.	40c#X
.	.	40eJJJ
.	8r	8r
.	8r	40d-XLLL
.	.	40e--
.	.	40f
.	.	40g
.	.	40b-XJJJ
.	8GG 8F 8Bn	8r
.	4r	40gLLL
.	.	40a-X
.	.	40bn
.	.	40cc#X
.	.	40eenJJJ
.	.	8r
=144	=144	=144
2.r	8D-X 8c-X 8f	40dd-XLLL
.	.	40ee--
.	.	40ff
.	.	40gg
.	.	40bb-XJJJ
.	8r	8r
.	8r	40ggLLL
.	.	40aa-X
.	.	40bbn
.	.	40ccc#X
.	.	40eeenJJJ
.	8G 8f 8cc-X	8r
.	4r	40ddd-XLLL
.	.	40eee--
.	.	40fff
.	.	40ggg
.	.	40bbb-XJJJ
.	.	8r
=145	=145	=145
*	*^	*^
*	*	*	*	*^
2.r	16CnLL	4DD-X 4FF#X	24B-XLL	4rc	4r
.	.	.	24ccJ	.	.
.	16D-X	.	.	.	.
.	.	.	24r	.	.
.	16E	.	24b-XL	.	.
.	.	.	24f#X	.	.
.	16F#XJJ	.	.	.	.
.	.	.	24eJJ	.	.
.	20ALL	4rEE	4c	4rc	4r
.	20C	.	.	.	.
.	20D-	.	.	.	.
.	20E	.	.	.	.
.	20F#JJ	.	.	.	.
*	*	*	*clefF4	*	*
.	20ALL	20rEE	20rc	10.rEE	10r
.	[20F-XJ	[20DD- [20GG-X	20G-XLL	.	.
.	10.F-J_	10.DD-_ 10.GG-_	20A--	.	[10.A--\
.	.	.	20B-	[10B-X	.
.	.	.	20cJJ	.	.
=146	=146	=146	=146	=146	=146
2.r	2.F-]	2.DD-] 2.GG-]	2.e-X	2.B-]	2.A--\]
*	*v	*v	*	*	*
*	*	*v	*v	*v
*	*	*clefG2
=147	=147	=147
2.r	8DD-X 8FF#X 8E 8B-X	40cLLL
.	.	40d-X
.	.	40e
.	.	40f#X
.	.	40aJJJ
.	8r	8r
.	8r	40g-XLLL
.	.	40a--
.	.	40b-X
.	.	40cc
.	.	40ee-XJJJ
.	8C 8B-X 8e	8r
.	4r	40ccLLL
.	.	40dd-X
.	.	40een
.	.	40ff#X
.	.	40aanJJJ
.	.	8r
*	*clefG2	*
=148	=148	=148
*	*^	*
2.r	8G-X 8f-X 8b-X	4rc	40gg-XLLL
.	.	.	40aa--
.	.	.	40bb-X
.	.	.	40ccc
.	.	.	40eee-XJJJ
.	8raa	.	8r
.	8raa	8rc	40cccLLL
.	.	.	40ddd-X
.	.	.	40eeen
.	.	.	40fff#X
.	.	.	40aaanJJJ
.	8c 8b- 8ff-X	8A--	8r
.	4raa	8G-L	40ggg-XLLL
.	.	.	40aaa--
.	.	.	40bbb-X
.	.	.	40cccc
.	.	.	40eeee-XJJJ
.	.	8E-XJ	8r
*	*clefF4	*	*
=149	=149	=149	=149
2.r	2rc	2En	4r
.	.	.	[8qA#X/
.	.	.	2A#_ [2f#X
.	4rc	4FF#X	.
=150	=150	=150	=150
2.r	4rc	4CC#X	8A#] 8f#]
.	.	.	4g
.	4d#X	4rEE	.
.	.	.	4a#X
.	4G	4rEE	.
.	.	.	8b#X
*	*v	*v	*
=151	=151	=151
*M5/8	*M5/8	*M5/8
3...r	3...r	8r
.	.	8f#XL
.	.	8g
.	.	8a#X
.	.	8b#XJ
=152	=152	=152
*M3/4	*M3/4	*M3/4
*	*	*^
2.r	4EE 4BB-X 4G	[2.dd#X	4d#X 4g
.	[8qEE/ 8qAA [8qG	.	.
.	2EE] 2BB- 2G]	.	4rc
.	.	.	4g
=153	=153	=153	=153
.	[8qEE/ 8qAA [8qG	.	[8qd#X\
2.r	2EE] 2BB-X 2G]	2dd#]	2d#]
.	[8qEE/ 8qAA [8qG	.	[8qdn\
.	4EE] 4BB- 4G]	4raa	4d]
*	*	*v	*v
=154	=154	=154
*	*^	*
2.r	4rc	8EE 8AA 8G	16c#XLL
.	.	.	16dd#XJJ
.	.	8rEE	8r
.	16GKL 16g	4rEE	12r
.	8.GJ 8.g	.	.
.	.	.	24r
.	.	.	24cc#XLL
.	.	.	24a
.	.	.	24gJJ
.	4rc	4EE 4BB-X 4G	6d#X
.	.	.	12dn
=155	=155	=155	=155
2.r	4rc	8EE 8AA 8G	16c#XLL
.	.	.	16dd#XJJ
.	.	8rEE	8r
.	16GKL 16g	4rEE	12r
.	8.GJ 8.g	.	.
.	.	.	24r
.	.	.	24cc#XLL
.	.	.	24a
.	.	.	24gJJ
.	4rc	4EE 4BB-X 4G	6d#X
.	.	.	12dn
=156	=156	=156	=156
2.r	4rc	8EE 8AA 8G	24c#XLL
.	.	.	24dd#XJ
.	.	.	24r
.	.	8rEE	24cc#XL
.	.	.	24a
.	.	.	24gJJ
.	24GLL	4rEE	8d#X
.	24aJ	.	.
.	24r	.	.
.	24gL	.	8r
.	24d#X	.	.
.	24c#XJJ	.	.
.	8A	4rEE	24gLL
.	.	.	24aaJ
.	.	.	24r
.	8rc	.	24ggL
.	.	.	24dd#
.	.	.	24cc#JJ
*	*v	*v	*
=157	=157	=157
*	*	*^
2.r	8EE-X 8AA 8G	8a	24c#XLL
.	.	.	24dd#XJ
.	.	.	24r
.	8r	8raa	24cc#XL
.	.	.	24a
.	.	.	24gJJ
.	8r	24cc#XLL	8d#X
.	.	24ddd#XJ	.
.	.	24r	.
.	8G	24ccc#XL	8rc
.	.	24aa	.
.	.	24ggJJ	.
.	8F#XL	8dd#X	4rc
.	8D#XJ	8raa	.
=158	=158	=158	=158
*	*^	*	*
2.r	12GL	4rEE	24raa	4rc
.	.	.	24ALL	.
.	12AA	.	24B-X	.
.	.	.	24c#X	.
.	12EEnJ	.	24d#X	.
.	.	.	24f#XJJ	.
.	12rc	12rEE	4raa	[2a
.	12EEL	6EE	.	.
.	12AAJ	.	.	.
.	12GL	4rEE	12raa	.
.	12AA	.	24b-X	.
.	.	.	24cc#XLL	.
.	12GJ	.	24dd#X	.
.	.	.	24ff#XJJ	.
=159	=159	=159	=159	=159
2.r	4rc	12c#XL	2.ryy	8a]
.	.	12G	.	.
.	.	.	.	4b-X
.	.	12c#J	.	.
.	4f#X	12f#L	.	.
.	.	12c#	.	.
.	.	.	.	4cc#X
.	.	12GJ	.	.
.	4B-X	12B-L	.	.
.	.	12f#	.	.
.	.	.	.	8dd#X
.	.	12GJ	.	.
=160	=160	=160	=160	=160
.	.	.	16qqf#X/LL	.
.	.	.	16qqb-X/JJ	.
2.r	4B-X	12B-L	[2.ff#X	24rc
.	.	.	.	24ALL
.	.	12C#X	.	24B-X
.	.	.	.	24c#X
.	.	12GGJ	.	24d#X
.	.	.	.	24f#JJ
.	12rc	12rEE	.	4rc
.	12GGL	6GG	.	.
.	12C#J	.	.	.
.	12B-L	4rEE	.	24rc
.	.	.	.	24aLL
.	12C#	.	.	24b-
.	.	.	.	24cc#X
.	12B-J	.	.	24dd#X
.	.	.	.	24ff#JJ
*	*v	*v	*	*
=161	=161	=161	=161
2.r	12c#XL	2.ff#]	12rc
.	12B-X	.	12rc
.	12c#J	.	12b-X
.	12f#XL	.	[4f#X
.	12c#	.	.
.	12B-J	.	.
.	12c#L	.	6f#]
.	12B-	.	.
.	12C#XJ	.	12fn
=162	=162	=162	=162
*	*^	*	*
2.r	4rc	12A#XL	2dd#X	4e
.	.	12E	.	.
.	.	12FF#XJ	.	.
.	16qqG#X/LL	.	.	.
.	16qqg#X/	.	.	.
.	16qqe/	.	.	.
.	16qqA#/JJ	.	.	.
.	2G#	4rEE	.	4rc
.	.	12EL	[4ddn	4rc
.	.	12FF#	.	.
.	.	12EJ	.	.
*	*	*	*v	*v
=163	=163	=163	=163
2.r	4r	12A#L	4e 4dd]
.	.	12E	.
.	.	12FF#J	.
.	16qqG#LL	.	.
.	16qqg#	.	.
.	16qqe	.	.
.	16qqA#JJ	.	.
*	*	*	*tremolo
.	4G#	4r	32cc#LLL
.	.	.	32dd 32dd#
.	.	.	32cc#
.	.	.	32dd 32dd#
.	.	.	32cc#
.	.	.	32dd 32dd#
.	.	.	32cc#
.	.	.	32ddJJJ 32dd#
.	4Gn	12GL	32cc#LLL
.	.	.	32dd 32dd#
.	.	.	32cc#
.	.	12E	.
.	.	.	32ddJJJ 32dd#
*	*	*	*Xtremolo
.	.	.	8b#
.	.	12FF#J	.
=164	=164	=164	=164
.	.	.	8qe/
2.r	4G#X	12G#L	4ee
.	.	12Dn	.
.	.	12FF#XJ	.
.	4rc	4rEE	4bn
.	.	.	8qdd#X/ 8qaa#X
.	12rc	4rEE	36ddd#XLL
.	.	.	36eee
.	.	.	[36ddd#JJ
.	12FF#L	.	6ddd#]
.	12EJ	.	.
*	*v	*v	*
=165	=165	=165
.	.	8qddn 8qaa#
2.r	12A#XL	36dddnLL
.	.	36eee
.	.	[36dddJJ
.	12E	6ddd]
.	12A#J	.
*	*clefG2	*
.	16qqg#X/LL	.
.	16qqgg#X/	.
.	16qqee/	8qcc# 8qaa#
.	16qqa#X/JJ	.
*	*	*tremolo
.	4g#	32ccc#LLL
.	.	32dddn 32ddd#
.	.	32ccc#
.	.	32dddn 32ddd#
.	.	32ccc#
.	.	32dddn 32ddd#
.	.	32ccc#
.	.	32dddnJJJ 32ddd#
.	4gn	32ccc#LLL
.	.	32dddn 32ddd#
.	.	32ccc#
.	.	32dddnJJJ 32ddd#
*	*	*Xtremolo
.	.	8bb#
*	*clefF4	*
=166	=166	=166
.	.	16qqccn/LL
.	.	16qqff#X/
.	.	16qqbbn/JJ
*	*^	*
2.r	4f#X	12f#L	4eee
.	.	12G#X	.
.	.	12DJ	.
.	8rc	12rEE	4bb
.	.	12FF#XL	.
.	8c	.	.
.	.	12DJ	.
.	6B	12G#L	4r
.	.	12D	.
.	12G#	12G#J	.
=167	=167	=167	=167
2.r	8c	12cL	2.r
.	.	12G#X	.
.	8rc	.	.
.	.	12cJ	.
.	12rc	12f#XL	.
.	6c	12c	.
.	.	12G#J	.
.	6B	12BL	.
.	.	12D	.
.	12G#	12FF#XJ	.
=168	=168	=168	=168
*	*	*	*^
2.r	12AL	4A	18.raa	4rc
.	12BB	.	36raa	.
.	.	.	36BLL	.
.	.	.	36c	.
.	12FF#XJ	.	36d#X	.
.	.	.	36e#X	.
.	.	.	36g#XJJ	.
.	12rc	12rEE	4raa	[2b
.	12FF#L	6FF#	.	.
.	12BBJ	.	.	.
.	12AL	4rEE	18.raa	.
.	12BB	.	18raa	.
.	.	.	36cc	.
.	12AJ	.	36dd#XLL	.
.	.	.	36ee#X	.
.	.	.	36gg#XJJ	.
=169	=169	=169	=169	=169
2.r	4rc	12d#XL	2.ryy	8b]
.	.	12A	.	.
.	.	.	.	4cc
.	.	12d#J	.	.
.	4g#X	12g#L	.	.
.	.	12d#	.	.
.	.	.	.	4dd#X
.	.	12AJ	.	.
.	4c	12cL	.	.
.	.	12g#	.	.
.	.	.	.	8ee#X
.	.	12AJ	.	.
=170	=170	=170	=170	=170
2.r	4c	12cL	[2.gg#X	18.rc
.	.	12D#X	.	36rc
.	.	.	.	36BLL
.	.	.	.	36c
.	.	12AAJ	.	36d#X
.	.	.	.	36e#X
.	.	.	.	36g#XJJ
.	12rc	12rEE	.	4rc
.	12AAL	6AA	.	.
.	12D#J	.	.	.
.	12cL	4rEE	.	18.rc
.	12D#	.	.	36rc
.	.	.	.	36bLL
.	.	.	.	36cc
.	12cJ	.	.	36dd#X
.	.	.	.	36ee#X
.	.	.	.	36gg#JJ
*	*v	*v	*	*
*	*	*v	*v
=171	=171	=171
2.r	12g#XL	6gg#]
.	12c	.
.	12D#XJ	12cc
.	4r	12cL 12g#X
.	.	12d#X 12gn
.	.	12cJ 12g#X
.	12DD#XL	12d#L 12gn
.	12AAAJ	12c 12g#X
.	12r	12d#J 12gn
=172	=172	=172
*	*^	*^
2.r	12cL	4rEE	18.raa	4rc
.	12Dn	.	36raa	.
.	.	.	36dnLL	.
.	.	.	36e-X	.
.	12AAJ	.	36f#X	.
.	.	.	36g#X	.
.	.	.	36bJJ	.
.	12rc	12rEE	4rccc	[2dd
.	12AAL	6AA	.	.
.	12DJ	.	.	.
.	12cL	4rEE	18.raa	.
.	12D	.	36raa	.
.	.	.	36ddLL	.
.	.	.	36ee-X	.
.	12cJ	.	36ff#X	.
.	.	.	36gg#X	.
.	.	.	36bbJJ	.
=173	=173	=173	=173	=173
2.r	4rc	12f#XL	2.ryy	8dd]
.	.	12c	.	.
.	.	.	.	4ee-X
.	.	12f#J	.	.
.	4b	12bL	.	.
.	.	12f#	.	.
.	.	.	.	4ff#X
.	.	12cJ	.	.
.	4e-X	12e-L	.	.
.	.	12b	.	.
.	.	.	.	8gg#X
.	.	12cJ	.	.
=174	=174	=174	=174	=174
2.r	4e-X	12e-L	[2.bb	18.rc
.	.	12F#X	.	36rc
.	.	.	.	36dLL
.	.	.	.	36e-X
.	.	12CJ	.	36f#X
.	.	.	.	36g#X
.	.	.	.	36bJJ
.	4rc	12rEE	.	4rc
.	.	12CL	.	.
.	.	12F#J	.	.
.	4rc	12e-L	.	18.rc
.	.	12F#	.	36rc
.	.	.	.	36ddLL
.	.	.	.	36ee-X
.	.	12e-J	.	36ff#X
.	.	.	.	36gg#X
.	.	.	.	36bbJJ
*	*v	*v	*	*
*	*	*v	*v
=175	=175	=175
2.r	12bL	6bb]
.	12e-X	.
.	12F#XJ	12ee-X
.	4r	12e-XL 12b
.	.	12f#X 12b-X
.	.	12e-J 12bn
.	12FF#XL	12f#L 12b-X
.	12CCJ	12e- 12bn
.	12r	12f#J 12b-X
=176	=176	=176
2.r	12e-XL	16aLL
.	.	16dddJJ
.	12Fn	.
.	.	8r
.	12CJ	.
.	12FL	12r
.	12e-J	24r
.	.	24cccLL
.	12r	24aa-X
.	.	24gg-XJJ
.	4E-X 4An 4g-X	4dd
=177	=177	=177
.	.	16qqf/LL
.	.	16qqg-X/
.	.	16qqan/
.	.	16qqb/JJ
2.r	12AL	12g-L 12dd
.	12E-XJ	12a 12dd-X
.	12r	12g-J 12ddn
.	12AAL	12aL 12dd-X
.	12EE-XJ	12g- 12ddn
.	12r	12aJ 12dd-X
.	12AL	12g- 12ddn
.	12E-J	12r
.	12r	12a 12dd-X
=178	=178	=178
2.r	12g-XL	16ccLL
.	.	16fffJJ
.	12A-X	.
.	.	8r
.	12E-XJ	.
.	12A-L	12r
.	12g-J	24r
.	.	24eee-XLL
.	12r	24ccc-X
.	.	24bb--JJ
.	4G-X 4cn 4b--	4ff
=179	=179	=179
.	.	16qqa-X/LL
.	.	16qqb--/
.	.	16qqccn/
.	.	16qqdd/JJ
2.r	12cL	12b--L 12ff
.	12G-XJ	12cc 12ff-X
.	12r	12b--J 12ffn
.	12CL	12ccL 12ff-X
.	12GG-XJ	12b-- 12ffn
.	12r	12ccJ 12ff-X
.	8r	12b--L 12ffn
.	.	12cc 12ff-X
.	16DDLL 16D	.
.	.	12b--J 12ffn
.	16AAAnJJ 16AAn	.
=180	=180	=180
*	*	*^
2.r	16F#XLL 16c	6ff#X	12f#XL 12cc
.	16F# 16c	.	.
.	.	.	12f# 12cc
.	16DD 16D	.	.
.	.	[12gg#X	12g#XJ 12cc
.	16GGG#XJJ 16GG#X	.	.
.	16F#LL 16c 16f#X	6gg#]	12g#L 12cc
.	16F# 16c 16f#	.	.
.	.	.	12g# 12cc
.	16F# 16c 16f#	.	.
.	.	12aa	12aJ 12cc
.	16F#JJ 16c 16f#	.	.
.	16F#LL 16c 16f#	12bnL 12ff# 12bbn	4rc
.	16F# 16c 16f#	.	.
.	.	12cc 12ff# 12ccc	.
.	16GGG# 16GG#	.	.
.	.	12ddJ 12ff# 12ddd	.
.	16DDDJJ 16DD	.	.
=181	=181	=181	=181
2.r	16F#XLL 16c 16f#X	12ffnL 12aa 12fffn	4rc
.	16F# 16c 16f#	.	.
.	.	12ee 12aa 12eee	.
.	16F# 16c 16f#	.	.
.	.	12ee-XJ 12aa 12eee-X	.
.	16F#JJ 16c 16f#	.	.
.	16F#LL 16c 16f#	[4bb	12bL 12ee-
.	16F# 16c 16f#	.	.
.	.	.	12b 12ee-
.	16F# 16c 16f#	.	.
.	.	.	12bJ 12ee-
.	16F#JJ 16c 16f#	.	.
.	16F#LL 16c 16f#	12bL 12ee- 12bb]	4rc
.	16F# 16c 16f#	.	.
.	.	12b-X 12ee- 12bb-X	.
.	16F# 16c 16f#	.	.
.	.	12aJ 12ee- 12aa	.
.	16F#JJ 16c 16f#	.	.
=182	=182	=182	=182
*	*^	*	*
2.r	16AAKL	4AA	8fnL	4F#X 4c
.	8DD	.	.	.
.	.	.	8eJ	.
.	16DDJk	.	.	.
.	8qGG#X/	.	.	.
.	16AAKL	4AA	8e-XL	2F# 2Bn
.	8DD	.	.	.
.	.	.	[8dJ	.
.	16DDJk	.	.	.
.	16GG#KL	4GG#	12dL]	.
.	8DD	.	.	.
.	.	.	12fn	.
.	.	.	12g#XJ	.
.	[16DDJk	.	.	.
=183	=183	=183	=183	=183
2.r	12DDL] 12GGn 12Fn 12B 12f	4rEE	[2b	4rc
.	24DDL	.	.	.
.	24GG#X	.	.	.
.	24F#X	.	.	.
.	24cJJ	.	.	.
.	16E-XKL 16e-X	4rEE	.	4f#X
.	8.E-J 8.e-	.	.	.
.	8f#XL	4rEE	12b]	12rc
.	.	.	6ffn	12fnL 12cc
.	16DDL 16D	.	.	.
.	.	.	.	12fJ 12cc
.	16AAAJJ 16AA	.	.	.
=184	=184	=184	=184	=184
2.r	4En 4en	16F#XLL 16c	6ff#X	12f#XL 12cc
.	.	16F# 16c	.	.
.	.	.	.	12f# 12cc
.	.	16DD 16D	.	.
.	.	.	[12gg#X	12g#XJ 12cc
.	.	16GGG#XJJ 16GG#X	.	.
.	4E 4e	16F#LL 16c	6gg#]	12g#L 12cc
.	.	16F# 16c	.	.
.	.	.	.	12g# 12cc
.	.	16F# 16c	.	.
.	.	.	12aa	12aJ 12cc
.	.	16F#JJ 16c	.	.
.	4E-X 4e-X	16F#LL 16c	12bL 12ff# 12bb	4rc
.	.	16F# 16c	.	.
.	.	.	12cc 12ff# 12ccc	.
.	.	16GGG# 16GG#	.	.
.	.	.	12ddJ 12ff# 12ddd	.
.	.	16DDDJJ 16DD	.	.
=185	=185	=185	=185	=185
2.r	2.c 2.cc	16rEE	12ffnL 12aa 12fffn	4rc
.	.	16F#XLL 16c 16f#X	.	.
.	.	.	12ee 12aa 12eee	.
.	.	16F# 16c 16f#	.	.
.	.	.	12ee-XJ 12aa 12eee-X	.
.	.	16F#JJ 16c 16f#	.	.
.	.	16F#LL 16c 16f#	[4bb	12bL 12ee-
.	.	16F# 16c 16f#	.	.
.	.	.	.	12b 12ee-
.	.	16F# 16c 16f#	.	.
.	.	.	.	12bJ 12ee-
.	.	16F#JJ 16c 16f#	.	.
.	.	16F#LL 16c 16f#	12bL 12ee- 12bb]	4rc
.	.	16F# 16c 16f#	.	.
.	.	.	12b-X 12ee- 12bb-X	.
.	.	16F# 16c 16f#	.	.
.	.	.	12aJ 12ee- 12aa	.
.	.	16F#JJ 16c 16f#	.	.
=186	=186	=186	=186	=186
2.r	16AAKL	4AA	8fnL	4F#X 4c
.	8DD	.	.	.
.	.	.	8eJ	.
.	16DDJk	.	.	.
.	8qGG#X/	.	.	.
.	16AAKL	4AA	8e-XL	2F# 2Bn
.	8DD	.	.	.
.	.	.	[8dJ	.
.	16DDJk	.	.	.
.	16GG#KL	4GG#	12dL]	.
.	8DD	.	.	.
.	.	.	12fn	.
.	.	.	12g#XJ	.
.	16DDJk	.	.	.
*	*	*	*v	*v
=187	=187	=187	=187
.	.	[8qFFFn\ 8qBBB	.
2.r	4G-X 4g-X	12FFFL] 12BBB 12B 12e--	[2b
.	.	24FFFL	.
.	.	24BBB	.
.	.	24B	.
.	.	24e--JJ	.
.	16G-KL 16g-	2a	.
.	8.G-J 8.g-	.	.
.	16G-KL 16g-	.	8b]
.	8.G-J 8.g-	.	.
.	.	.	8r
=188	=188	=188	=188
2.r	20G-XLL	4rEE	6B 6d 6g-X
.	20BB	.	.
.	20FF	.	.
.	20GG-X	.	.
.	.	.	[12c [12e-X [12a-X
.	20BBBJJ	.	.
.	20FFFLL	4rEE	4c_ 4e-_ 4a-_
.	20BBB	.	.
.	20GG-	.	.
.	20FF	.	.
.	20BBJJ	.	.
.	24G-LL	12.rEE	6c] 6e-] 6a-]
.	24BB	.	.
.	24FF	.	.
.	24GG-	24rEE	.
.	24BBB	[12BBB	12d 12f 12an
.	[24FFFJJ	.	.
=189	=189	=189	=189
*	*	*^	*
2.r	12FFFL] 12B 12e--	12BBB]	4G-X\ 4g-X	[2b
.	24FFFL	12rEE	.	.
.	24BBB	.	.	.
.	24B	12rEE	.	.
.	24e--JJ	.	.	.
.	2a	4rEE	16G-\KL 16g-	.
.	.	.	8.G-\J 8.g-	.
.	.	4rEE	16G-\KL 16g-	8b]
.	.	.	8.G-\J 8.g-	.
.	.	.	.	8r
*	*	*v	*v	*
=190	=190	=190	=190
2.r	20G-XLL	4rEE	6B 6d 6g-X
.	20BB	.	.
.	20FF	.	.
.	20GG-X	.	.
.	.	.	[12c [12e-X [12a-X
.	20BBBJJ	.	.
.	20FFFLL	4rEE	6c] 6e-] 6a-]
.	20BBB	.	.
.	20GG-	.	.
.	20DD	.	.
.	.	.	12d 12f 12b--
.	20AA-XJJ	.	.
.	16B--KL	8B--	4e-X 4g- 4cc-X
.	8.B--J	.	.
.	.	8rEE	.
=191	=191	=191	=191
*	*	*	*^
2.r	10.G#X	20G#LL	6e#X 6g#X 6ccn	[4cn
.	.	20E#X	.	.
.	.	20BBn	.	.
.	10F#X	20C	.	.
.	.	.	[12f#X [12an [12dd	.
.	.	20EE#XJJ	.	.
.	4rc	20BBBLL	6f#] 6a] 6dd]	6c]
.	.	20EE#	.	.
.	.	20C	.	.
.	.	20GG#X	.	.
.	.	.	.	[8qBn\
.	.	.	[12e-X 12g#X 12bn 12ee-X	12B]
.	.	20DJJ	.	.
.	16cKL	8c	4e-] 4a 4cc 4ffn	4rc
.	8.cJ	.	.	.
.	.	8rEE	.	.
=192	=192	=192	=192	=192
2.r	20G-XLL 20B	4rEE	6b 6dd 6gg-X	[4g-X
.	20BB	.	.	.
.	20FF	.	.	.
.	20GG-X	.	.	.
.	.	.	[12cc [12ee-X [12aa-X	.
.	20BBBJJ	.	.	.
.	20FFFLL	4rEE	6cc] 6ee-] 6aa-]	6g-]
.	20BBB	.	.	.
.	20GG-	.	.	.
.	20DD	.	.	.
.	.	.	.	[8qf\
.	.	.	[12b-- 12dd 12ff 12bb--	12f]
.	20AA-XJJ	.	.	.
.	12B--L	12B--L	12b--L] 12ee-X 12gg-X 12ccc-X	4rc
.	12.G#X	24G#L	[12ccn 12ee#X 12gg#X 12cccn	.
.	.	24BBBn	.	.
.	.	24EE#X	12ccJ] 12ff#X 12aan 12ddd	.
.	24F#XJk	24F#JJ	.	.
=193	=193	=193	=193	=193
2.r	4B-- 4b--	12rEE	4ccc	12ffnL 12fffn
.	.	24AAA-XLL	.	12ff-X 12fff-X
.	.	24DD	.	.
.	.	24C	.	12ee-XJ 12eee-X
.	.	24G-XJJ	.	.
.	2E-X 2e-X	4rEE	2ff#X	[4bn [4bbn
.	.	24GGG#XLL	.	12bL] 12bb]
.	.	24DD	.	.
.	.	24C	.	12b-X 12bb-X
.	.	24F#XJJ	.	.
.	.	12rEE	.	12aJ 12aa
=194	=194	=194	=194	=194
2.r	4E-X 4e-X	12rEE	4ff#X	12bnL 12bbn
.	.	24GGG#XLL	.	12b-X 12bb-X
.	.	24DD	.	.
.	.	24C	.	12aJ 12aa
.	.	24F#XJJ	.	.
.	2BB-- 2B--	4rEE	2cc	[4fn [4ffn
.	.	24AAA-XLL	.	12fL] 12ff]
.	.	24DD	.	.
.	.	24C	.	12f-X 12ff-X
.	.	24G-XJJ	.	.
.	.	12rEE	.	12e-XJ 12ee-X
*	*v	*v	*	*
=195	=195	=195	=195
2.r	12r	4cc	12fnL 12ffn
.	24AAA-XLL	.	12f-X 12ff-X
.	24DD	.	.
.	24C	.	[12e-XJ 12ee-X
.	24G-XJJ	.	.
.	4r	12bnL	2e-]
.	.	12b-X	.
.	.	12anJ	.
.	24GGG#XLL	12bnL	.
.	24DD	.	.
.	24C	12b-X	.
.	24F#XJJ	.	.
.	12r	12aJ	.
=196	=196	=196	=196
2.r	4r	12fnL	2B--
.	.	12f-X	.
.	.	12e-XJ	.
.	24AAA-XLL	12fnL	.
.	24DD	.	.
.	24C	12f-X	.
.	24G-XJJ	.	.
.	12r	12e-XJ	.
.	4r	12BnL	4E-X
.	.	12B-X	.
.	.	12AnJ	.
*	*	*v	*v
*	*	*clefF4
=197	=197	=197
2.r	12r	12BnL
.	24AAA-XLL	12B-X
.	24DD	.
.	24BB--	12AnJ
.	24E-XJJ	.
.	4r	12FnL
.	.	12F-X
.	.	12E-XJ
.	4r	12BBnL
.	.	12BB-X
.	.	24AAJk
.	.	24r
*	*	*clefG2
=198	=198	=198
*	*^	*
.	.	[8qAA-X\	.
*	*	*	*^
2.r	4rc	8EE-X 8AA-] 8G-X	6raa	12rc
.	.	.	.	12cL
.	.	8rEE	.	.
.	.	.	[12a-X	[12g-XJ
.	4f	4rEE	6a-]	12g-L]
.	.	.	.	12c
.	.	.	12b--	[12g-J
.	4B--	4rEE	6cc	12g-L]
.	.	.	.	12c
.	.	.	12dd	12g-J
*	*v	*v	*	*
=199	=199	=199	=199
2.r	8GG-X 8C 8An	6ff	4c 4f 4an
.	8r	.	.
.	.	12a	.
.	12CL	[4f	12AL
.	12GG-J	.	12c
.	12r	.	12AJ
.	12GG-L	6f]	12cL
.	12GGG-XJ	.	12A
.	12r	12en	12cJ
=200	=200	=200	=200
*	*^	*	*
2.r	4rc	8FF#X 8BB 8A	6raa	12rc
.	.	.	.	12d#XL
.	.	8rEE	.	.
.	.	.	[12b	[12aJ
.	4g#X	4rEE	6b]	12aL]
.	.	.	.	12d#
.	.	.	12cc	[12aJ
.	4c	4rEE	6dd#X	12aL]
.	.	.	.	12d#
.	.	.	12ee#X	12aJ
*	*v	*v	*	*
=201	=201	=201	=201
2.r	8AA 8D#X 8B#X	6gg#X	4d#X 4g#X 4b#X
.	8r	.	.
.	.	12b#	.
.	12D#L	[4g#	12B#XL
.	12AAJ	.	12d#
.	12r	.	12B#J
.	12AAL	6g#]	12d#L
.	12AAAJ	.	12B#
.	12r	12gn	12d#J
*	*	*v	*v
=202	=202	=202
2.r	8AA 8Dn 8c	24f#XLL
.	.	24bbnJ
.	.	24r
.	8r	24aaL
.	.	24ffn
.	.	24ee-XJJ
.	2C 2F#X 2d#X	[4b
.	.	6b]
.	.	12b-X
=203	=203	=203
2.r	8C 8Fn 8e-X	24aLL
.	.	24dddnJ
.	.	24r
.	8r	24cccL
.	.	24aa-X
.	.	24gg-XJJ
.	4E-X 4An 4f#X	6dd
.	.	12dd-X
.	8E- 8A-X 8g-X	24ccLL
.	.	24fffnJ
.	.	24r
.	8r	24eee-XL
.	.	24ccc-X
.	.	24bb--JJ
=204	=204	=204
.	8qc-X/	.
2.r	4G-X 4cn	12anL 12ff
.	.	12a 12ff
.	.	12aJ 12ff
.	8qF/	.
.	4C 4G-	12aL 12ff
.	.	12a 12ff
.	.	12aJ 12ff
.	8qC-X/	.
.	4GG-X 4Cn	12aL 12ff
.	.	12a 12ff
.	.	12aJ 12ff
=205	=205	=205
2.r	4r	4r
.	[8qGG-X/ 8qC-X [8qA	.
.	4GG-] 4Cn 4A]	12fL 12a 12ff
.	.	12f 12a 12ff
.	.	12fJ 12a 12ff
.	[8qGG-/ 8qC-X [8qAn	.
.	4GG-] 4Cn 4A]	12eL 12a 12ee
.	.	12e 12a 12ee
.	.	12eJ 12a 12ee
=206	=206	=206
2.r	6CCC 6CC	12aL 12b 12ee-X 12aa 12bb
.	.	12a 12b 12ee- 12aa 12bb
.	12FF 12F	12aJ 12b 12ee- 12aa 12bb
.	2GG-X 2G-X	6a 6b 6ee- 6aa 6bb
.	.	[12a [12b [12ee- [12aa [12bb
.	.	12aL] 12b] 12ee-] 12aa] 12bb]
.	.	12a 12b 12ee- 12aa 12bb
.	.	12aJ 12b 12ee- 12aa 12bb
=207	=207	=207
2.r	4r	4r
.	4CC 4GGn 4E-X	4A 4e-X 4b
.	4CC 4GG-X 4E-	4A-X
=208	=208	=208
2.r	8CC 8FF 8E-X	24AnLL
.	.	24bJ
.	.	24r
.	8r	24aL
.	.	24f
.	.	24e-XJJ
.	[2CC [2GG-X [2E-	[2B
=209	=209	=209
2.r	4.CC] 4.GG-] 4.E-]	4.B]
.	4CC 4GG-X 4E-X	4B
.	8CC 8GG- 8E-	8B-X
=210	=210	=210
*	*^	*
2.r	[2.CC [2.E-X	4.GGn	[2.A [2.e-X [2.bn
.	.	8FF#X	.
.	.	[4GG	.
=211	=211	=211	=211
2.r	4.CC] 4.E-]	4.GG]	4.A] 4.e-] 4.b]
.	4.CC 4.E-X	4GG	4B
.	.	8GG-X	8B-X
=212	=212	=212	=212
2.r	[2.CC [2.E-X	4.GGn	[2.A [2.e-X [2.bn
.	.	8FF#X	.
.	.	[4GG	.
=213	=213	=213	=213
2.r	8CC] 8E-]	8GG]	8A] 8e-] 8b]
.	8rc	8rEE	8r
.	4CC 4GG 4E-X	4rEE	4A 4e-X 4b
.	4CC 4GG-X 4E-	4rEE	4A-X
*	*v	*v	*
=214	=214	=214
2.r	16FFLL 16E-X	24AnLL
.	.	24bJ
.	16CCJJ	.
.	.	24r
.	8r	24aL
.	.	24f
.	.	24e-XJJ
.	16DD#XLL 16C	2F#X 2B
.	16AAAJJ	.
.	8r	.
.	16AAALL	.
.	16AAAAJJ	.
.	8r	.
=215	=215	=215
2.r	16AA-XLL 16G-X	24cLL
.	.	24ddJ
.	16EE-XJJ	.
.	.	24r
.	8r	24ccL
.	.	24a-X
.	.	24g-XJJ
.	16FF#XLL 16E-X	2An 2d
.	16CCJJ	.
.	8r	.
.	16CCLL	.
.	16CCCJJ	.
.	8r	.
=216	=216	=216
*	*	*^
2.r	16BBLL 16An	6d#X	4rc
.	16FF#XJJ	.	.
.	8r	.	.
.	.	[12e#X	.
.	24AALL 24G-X	6e#]	6c
.	24EE-XJJ	.	.
.	12r	.	.
.	[12AA [12Dn	12f#X	[12c
.	12AA] 12D]	12g#XL	12c]
.	6C 6Fn	12a	6e-X
.	.	12bJ	.
=217	=217	=217	=217
*	*	*	*^
2.r	4BB 4A	12ddnL	4f#X	8d#X\
.	.	12cc#X	.	.
.	.	.	.	8r
.	.	12ccnJ	.	.
.	[8qBBB/ [8qEE#X	.	.	.
.	2BBB] 2EE#] 2D#X 2A	[4g#X	4rc	2c\
.	.	12g#L]	4rc	.
.	.	12gn	.	.
.	.	12f#J	.	.
*	*	*	*v	*v
=218	=218	=218	=218
*	*^	*	*
2.r	16FF#XKL	4FF#	8dnL	4D#X 4A
.	8BBB	.	.	.
.	.	.	8c#XJ	.
.	16BBBJk	.	.	.
.	8qEE#X/	.	.	.
.	16FF#KL	4FF#	8cnL	2D# 2G#X
.	8BBB	.	.	.
.	.	.	[8BJ	.
.	16BBBJk	.	.	.
.	16EE#KL	4EE#	12BL]	.
.	8BBB	.	.	.
.	.	.	12dn	.
.	.	.	12e#XJ	.
.	[16BBBJk	.	.	.
*	*	*	*v	*v
=219	=219	=219	=219
2.r	12BBBL] 12EEn 12Dn 12G#X 12d	4rEE	[2g#X
.	24BBBL	.	.
.	24EE	.	.
.	24D	.	.
.	24G#JJ	.	.
.	4f#X	4rEE	.
.	12f#L	12rEE	12g#]
.	12fn	12rEE	12r
.	12DDJ 12D	24EELL	12G#X
.	.	24FFnJJ	.
=220	=220	=220	=220
2.r	2.CC 2.GG-X 2.E-X	4rEE	2.A 2.e-X 2.b
.	.	16CCCKL 16CC	.
.	.	8.CCCJ 8.CC	.
.	.	4rEE	.
*	*v	*v	*
=221	=221	=221
2.r	4r	4r
.	4CC 4GGn 4E-X	4A 4e-X 4b
.	4CC 4GG-X 4E-	4A-X
=222	=222	=222
2.r	8CC 8FF 8E-X	24AnLL
.	.	24bJ
.	.	24r
.	8r	24aL
.	.	24f
.	.	24e-XJJ
.	[2CC [2GG-X [2E-	[2B
=223	=223	=223
2.r	4.CC] 4.GG-] 4.E-]	4.B]
.	4CC 4GG-X 4E-X	4B
.	8CC 8GG- 8E-	8B-X
=224	=224	=224
*	*^	*
2.r	[2.CC [2.E-X	4.GGn	[2.A [2.e-X [2.bn
.	.	8FF#X	.
.	.	[4GG	.
=225	=225	=225	=225
2.r	4.CC] 4.E-]	4.GG]	4.A] 4.e-] 4.b]
.	4.CC 4.E-X	4GG	4B
.	.	8GG-X	8B-X
=226	=226	=226	=226
2.r	[2.CC [2.E-X	4.GGn	[2.A [2.e-X [2.bn
.	.	8FF#X	.
.	.	[4GG	.
=227	=227	=227	=227
2.r	8CC] 8E-]	8GG]	8A] 8e-] 8b]
.	8rc	8rEE	8r
.	4CC 4GG 4E-X	4rEE	4A 4e-X 4b
.	4CC 4GG-X 4E-	4rEE	4A-X
*	*v	*v	*
=228	=228	=228
2.r	16FFLL 16E-X	24AnLL
.	.	24bJ
.	16CCJJ	.
.	.	24r
.	8r	24aL
.	.	24f
.	.	24e-XJJ
.	16DD#XLL 16C	2F#X 2B
.	16AAAJJ	.
.	8r	.
.	16AAALL	.
.	16AAAAJJ	.
.	8r	.
=229	=229	=229
2.r	16AA-XLL 16G-X	24cLL
.	.	24ddJ
.	16EE-XJJ	.
.	.	24r
.	8r	24ccL
.	.	24a-X
.	.	24g-XJJ
.	8r	8d
.	4EE- 4BB--	4G-X 4d
.	8EE- 8BB--	8G- 8d-X
=230	=230	=230
2.r	16AA-XLL 16G-X	24cLL
.	.	24ddnJ
.	16EE-XJJ	.
.	.	24r
.	8r	24ccL
.	.	24a-X
.	.	24g-XJJ
.	16FF#XLL 16E-X	2An 2d
.	16CCJJ	.
.	8r	.
.	16CCLL	.
.	16CCCJJ	.
.	8r	.
=231	=231	=231
2.r	16BBLL 16A	24d#XLL
.	.	24ee#XJ
.	16FF#XJJ	.
.	.	24r
.	8r	24dd#XL
.	.	24b
.	.	24aJJ
.	12r	12e#X
.	6FF# 6C	6A 6e#
.	6FF# 6C	6A 6e#
.	12FF# 12C	12A 12en
=232||	=232||	=232||
*M9/8	*M9/8	*M9/8
*	*^	*^
8%9r	4.c#X	16c#LL	2.a 2.dd#X	4d#X 4dd#
.	.	16A	.	.
.	.	16BB	.	.
.	.	16FF#XJJ	.	.
.	.	8rEE	.	[8e#X [8ee#X
.	4.c#	16c#LL	.	4e#] 4ee#]
.	.	16A	.	.
.	.	16D#X	.	.
.	.	16EE#XJJ	.	.
.	.	8rEE	.	8f#X 8ff#X
.	4.cn	16cLL	4.dd# 4.ff#	8g#XL 8gg#X
.	.	16A	.	.
.	.	16D#	.	8a 8aa
.	.	16EE#JJ	.	.
.	.	8rEE	.	8bJ 8bb
=233	=233	=233	=233	=233
8%9r	4.a	16aLL	4.ff#X	8ddnL 8dddn
.	.	16d#X	.	.
.	.	16A	.	8cc#X 8ccc#X
.	.	16D#X	.	.
.	.	16EE#X	.	8ccnJ 8cccn
.	.	16BBBJJ	.	.
.	8rc	8rEE	2.cc	[4.g#X [4.gg#X
.	16BBBLL	4rEE	.	.
.	16EE#	.	.	.
.	16D#	.	.	.
.	16AJJ	.	.	.
.	8d#	4rEE	.	8g#L] 8gg#]
.	8rc	.	.	8gn 8ggn
.	8rc	8rEE	.	8f#XJ 8ff#X
*	*v	*v	*	*
*	*	*v	*v
=234	=234	=234
*M3/4	*M3/4	*M3/4
*	*^	*^
2.r	16F#XLL	2FF#X 2F#	8ddnL	4d#X 4a
.	16BB	.	.	.
.	16FF#	.	8cc#XJ	.
.	[16BBBJJ	.	.	.
.	16BBBLL]	.	8ccnL	2d# 2g#X
.	16FF#	.	.	.
.	16BB	.	[8bJ	.
.	16F#JJ	.	.	.
.	16E#XLL	4EE#X 4E#	12bL]	.
.	16BB	.	.	.
.	.	.	12ddn	.
.	16EE#	.	.	.
.	.	.	12ee#XJ	.
.	16BBBJJ	.	.	.
*	*v	*v	*	*
=235	=235	=235	=235
2.r	12BBB 12EEn 12BB 12En	4gg#X	4dn 4g#X 4dd
.	24BBBLL	.	.
.	24EE	.	.
.	24D	.	.
.	24G#XJJ	.	.
.	4.f#X	2d 2b	4rc
.	.	.	4rc
.	8e#X	.	.
*	*	*v	*v
=236	=236	=236
*M9/8	*M9/8	*M9/8
*	*^	*^
8%9r	4.B	16BLL	2.gn 2.cc#X	4c#X 4cc#
.	.	16Gn	.	.
.	.	16AA	.	.
.	.	16EEnJJ	.	.
.	.	8rEE	.	[8d#X [8dd#X
.	4.B	16BLL	.	4d#] 4dd#]
.	.	16G	.	.
.	.	16C#X	.	.
.	.	16DD#XJJ	.	.
.	.	8rEE	.	8en 8een
.	4.B-X	16B-LL	4.cc# 4.ee	8f#XL 8ff#X
.	.	16G	.	.
.	.	16C#	.	8g 8gg
.	.	16DD#JJ	.	.
.	.	8rEE	.	8aJ 8aa
=237	=237	=237	=237	=237
8%9r	4.g	16gLL	4.ee	8ccnL 8cccn
.	.	16c#X	.	.
.	.	16G	.	8b 8bb
.	.	16C#X	.	.
.	.	16DD#X	.	8b-XJ 8bb-X
.	.	16AAAJJ	.	.
.	8rc	8rEE	2.b-	[4.f#X [4.ff#X
.	16AAALL	4rEE	.	.
.	16DD#	.	.	.
.	16C#	.	.	.
.	16GJJ	.	.	.
.	8c#	4rEE	.	8f#L] 8ff#]
.	8rc	.	.	8fn 8ffn
.	8rc	8rEE	.	8eJ 8ee
*	*v	*v	*	*
*	*	*v	*v
=238	=238	=238
*M3/4	*M3/4	*M3/4
*	*^	*^
2.r	16ELL	2EE 2E	8ccnL	4c#X 4g
.	16AA	.	.	.
.	16EE	.	8bnJ	.
.	[16AAAJJ	.	.	.
.	16AAALL]	.	8b-XL	2c# 2f#X
.	16EE	.	.	.
.	16AA	.	[8aJ	.
.	16EJJ	.	.	.
.	16D#XLL	4DD#X 4D#	12aL]	.
.	16AA	.	.	.
.	.	.	12ccn	.
.	16DD#	.	.	.
.	.	.	12dd#XJ	.
.	16AAAJJ	.	.	.
*	*v	*v	*	*
=239	=239	=239	=239
2.r	12AAA 12DDn 12AA 12Dn	4ff#X	4cn 4f#X 4cc
.	24AAALL	.	.
.	24DD	.	.
.	24C	.	.
.	24F#XJJ	.	.
.	4.e	2c 2bn	4rc
.	.	.	4rc
.	8d#X	.	.
=240	=240	=240	=240
*	*^	*	*
2.r	16D#XLL	2DD#X 2D#	8bnL	4B#X 4f#X
.	16GG#X	.	.	.
.	16DD#	.	8a#XJ	.
.	[16GGG#XJJ	.	.	.
.	16GGG#LL]	.	8anL	2B# 2e#X
.	16DD#	.	.	.
.	16GG#	.	[8g#XJ	.
.	16D#JJ	.	.	.
.	16C##XLL	4CC##X 4C##	12g#L]	.
.	16GG#	.	.	.
.	.	.	12bn	.
.	16CC##	.	.	.
.	.	.	12cc##XJ	.
.	16GGG#JJ	.	.	.
*	*v	*v	*	*
=241	=241	=241	=241
2.r	12GGG#X 12CC#X 12GG#X 12C#X	4ee#X	4Bn 4e#X 4b
.	24GGG#LL	.	.
.	24CC#	.	.
.	24BB	.	.
.	24E#XJJ	.	.
.	4.d#X	2B 2b	4rc
.	.	.	4rc
.	8dn	.	.
*	*	*v	*v
=242	=242	=242
*	*^	*
2.r	12rc	4rEE	4r
.	24GGGnLL	.	.
.	24CC#X	.	.
.	24BB	.	.
.	24E#XJJ	.	.
.	4.d#X	4rEE	2B 2b
.	.	4B	.
.	8dn	.	.
=243	=243	=243	=243
*	*	*	*^
2.r	8cnL	24rEE	4raa	4rc
.	.	24FFF#XLL	.	.
.	.	24DD	.	.
.	8cJ	24GG#X	.	.
.	.	24C	.	.
.	.	24F#XJJ	.	.
.	8rc	8eL	4B 4b	4rc
.	8c	32cLL	.	.
.	.	32D	.	.
.	.	32FF#X	.	.
.	.	32DJJJ	.	.
.	8BL	32BLLL	24raa	12rc
.	.	32D	.	.
.	.	.	12dL	.
.	.	32FF#	.	.
.	.	.	.	24rc
.	.	32D	.	.
.	8G#XJ	32G#	24e-Xk	24B
.	.	32D	.	.
.	.	.	12f#XJ	12c
.	.	32FF#	.	.
.	.	32DJJJ	.	.
*	*	*	*v	*v
*	*clefG2	*	*
=244	=244	=244	=244
*^	*	*	*
8AL	32ALLL	12raa	24rc	4r
.	32BB	.	.	.
.	.	.	12BL	.
.	32FF#X	.	.	.
.	.	24raa	.	.
.	32BB	.	.	.
8AJ	32A	24g#X	[24ck	.
.	32BB	.	.	.
.	.	12a	12cJ]	.
.	32FF#	.	.	.
.	32FF#JJJ	.	.	.
8rc	32FFF#XLLL	12raa	24rc	[2b
.	32FF#	.	.	.
.	.	.	12BL	.
.	32FF#	.	.	.
.	.	24raa	.	.
.	32BB	.	.	.
8A	32A	24g#	24ck	.
.	32BB	.	.	.
.	.	12a	12d#XJ	.
.	32FF#	.	.	.
.	32BBJJJ	.	.	.
8G#XL	32G#LLL	12raa	24rc	.
.	32BB	.	.	.
.	.	.	12BL	.
.	32FF#	.	.	.
.	.	24raa	.	.
.	32BB	.	.	.
8E#XJ	32E#	24g#	24cL	.
.	32BB	.	.	.
.	.	12a	24d#	.
.	32FF#	.	.	.
.	.	.	24e#XJJ	.
.	32BBJJJ	.	.	.
=245	=245	=245	=245	=245
*	*	*	*^	*
8AL	32ALLL	12raa	24rc	4r	6b]
.	32BB	.	.	.	.
.	.	.	12BL	.	.
.	32FF#X	.	.	.	.
.	.	24raa	.	.	.
.	32BB	.	.	.	.
8AJ	32A	24g#X	24cL	.	.
.	32BB	.	.	.	.
.	.	12a	24d#X	.	[12cc
.	32A	.	.	.	.
.	.	.	24e#XJJ	.	.
.	32d#XJJJ	.	.	.	.
8rc	32g#XLLL	12raa	4g#	4r	6cc]
.	32d#	.	.	.	.
.	32A	.	.	.	.
.	.	24raa	.	.	.
.	32d#	.	.	.	.
8A	32A	24b	.	.	.
.	32BB	.	.	.	.
.	.	12cc	.	.	[12dd#X
.	32FF#	.	.	.	.
.	32BBJJJ	.	.	.	.
8AL	32ALLL	12raa	4c	24r	6dd#]
.	32BB	.	.	.	.
.	.	.	.	12g#/L	.
.	32FF#	.	.	.	.
.	.	24raa	.	.	.
.	32BB	.	.	.	.
8AJ	32A	24cc	.	24a/L	.
.	32d#	.	.	.	.
.	.	12dd#X	.	24b/	12ee#X
.	32g#	.	.	.	.
.	.	.	.	24cc/JJ	.
.	32d#JJJ	.	.	.	.
*	*	*	*v	*v	*
=246	=246	=246	=246	=246
8cL	32cLLL	12raa	12rc	[2.gg#X
.	32D#X	.	.	.
.	32AA	.	.	.
.	.	24raa	24rc	.
.	32D#	.	.	.
8cJ	32c	[24g#X 24cc##X	[24cn	.
.	32D#	.	.	.
.	.	12g#] 12dd#X	12c]	.
.	32AA	.	.	.
.	32AAJJJ	.	.	.
8rc	32AAALLL	12raa	24rc	.
.	32AA	.	.	.
.	.	.	12BL	.
.	32AA	.	.	.
.	.	24raa	.	.
.	32D#	.	.	.
8c	32c	[24g# 24cc##X	24cnk	.
.	32D#	.	.	.
.	.	12g#] 12dd#	12d#XJ	.
.	32AA	.	.	.
.	32D#JJJ	.	.	.
8BL	32BLLL	12raa	24rc	.
.	32D#	.	.	.
.	.	.	12BL	.
.	32AA	.	.	.
.	.	24raa	.	.
.	32D#	.	.	.
8G#XJ	32G#	[24g# 24cc##X	24cnL	.
.	32D#	.	.	.
.	.	12g#] 12dd#	24d#	.
.	32AA	.	.	.
.	.	.	24e#XJJ	.
.	32D#JJJ	.	.	.
=247	=247	=247	=247	=247
8cnL	32cLLL	12raa	24rc	4gg#]
.	32D#X	.	.	.
.	.	.	12BL	.
.	32AA	.	.	.
.	.	24raa	.	.
.	32D#	.	.	.
8cJ	32c	[24g#XKL 24cc##X	24cnL	.
.	32D#	.	.	.
.	.	12g#J] 12dd#X	24d#X	.
.	32AA	.	.	.
.	.	.	24e#XJJ	.
.	32AAJJJ	.	.	.
8rc	32AAALLL	4raa	20g#L	4r
.	32AA	.	.	.
.	.	.	20d#	.
.	32AA	.	.	.
.	32D#	.	.	.
.	.	.	20e#	.
8c	32c	.	.	.
.	.	.	20g#	.
.	32D#	.	.	.
.	32AA	.	.	.
.	.	.	20aJ	.
.	32D#JJJ	.	.	.
8cL	32cLLL	4raa	20ccnL	4r
.	32D#	.	.	.
.	.	.	20g#	.
.	32AA	.	.	.
.	32D#	.	.	.
.	.	.	20a	.
8cJ	32c	.	.	.
.	.	.	20b	.
.	32d#X	.	.	.
.	32g#X	.	.	.
.	.	.	20ccJ	.
.	32d#JJJ	.	.	.
*v	*v	*	*	*
*	*clefF4	*	*
=248	=248	=248	=248
*	*	*	*^
2.r	4c	32cLLL	2ff	20rc
.	.	32G-X	.	.
.	.	.	.	20cL
.	.	32AA-X	.	.
.	.	32AA-	.	.
.	.	.	.	20d
.	.	32AAA-X	.	.
.	.	.	.	20f
.	.	32AA-	.	.
.	.	32AA-	.	.
.	.	.	.	20g-XJ
.	.	32G-JJJ	.	.
.	8rc	32cLLL	.	8b-X
.	.	32B-X	.	.
.	.	32c	.	.
.	.	32g-XJJ	.	.
.	8c	8b-XJ	.	8rc
.	8cL	4b-	4ff-X	4rc
.	8cJ	.	.	.
*	*	*	*v	*v
=249	=249	=249	=249
2.r	4c	32cLLL	4ff-X
.	.	32G-X	.
.	.	32AA-X	.
.	.	32AA-	.
.	.	32AAA-X	.
.	.	32AA-	.
.	.	32AA-	.
.	.	32G-JJJ	.
*	*	*	*tremolo
.	8rc	32cLLL	32ee-XLLL
.	.	32B-X	32ff- 32ffn
.	.	32c	32ee-
.	.	32g-XJJ	32ff- 32ffn
.	8c	8b-XJ	32ee-
.	.	.	32ff- 32ffn
.	.	.	32ee-
.	.	.	32ff-JJJ 32ffn
.	8cL	4b-	32ee-LLL
.	.	.	32ff- 32ffn
.	.	.	32ee-
.	.	.	32ff-JJJ 32ffn
*	*	*	*Xtremolo
.	8cJ	.	8dd
=250	=250	=250	=250
.	.	.	16qqd/LL
.	.	.	16qqf#X/
.	.	.	16qqg#X/
.	.	.	16qqa#X/
.	.	.	16qqcc#X/JJ
*	*	*	*^
2.r	4A#X	32A#LLL	4ff#X	4rc
.	.	32E	.	.
.	.	32GG#X	.	.
.	.	32GG#	.	.
.	.	32GGG#X	.	.
.	.	32GG#	.	.
.	.	32GG#	.	.
.	.	32EJJJ	.	.
.	4rc	32A#LLL	4cc#	4rc
.	.	32A#	.	.
.	.	32c#X	.	.
.	.	32f#XJJ	.	.
.	.	8a#XJ	.	.
.	4rc	32AA-XLLL	8raa	8rc
.	.	32G-X	.	.
.	.	32cnJJJ	.	.
.	.	32rEE	.	.
*	*clefG2	*	*	*
.	.	72b-XLLL	24raa	24rc
.	.	72ccn	.	.
.	.	72gg-XJJ	.	.
.	.	12bb-XJ	12ffn	72ffLLL
.	.	.	.	72cccn
.	.	.	.	72fffnJ
.	.	.	.	24ggg-XJJ
*	*v	*v	*	*
*	*	*v	*v
=251	=251	=251
*	*	*^
2.r	32G-XLLL	8r	8r
.	32c	.	.
.	32b-XJJJ	.	.
.	32r	.	.
.	72b-LLL	24r	24r
.	72cc	.	.
.	72gg-XJJ	.	.
.	12bb-XJ	12ff-	72ff-LLL
.	.	.	72ccc
.	.	.	72fff-J
.	.	.	24ggg-JJ
.	32cLLL	8r	8r
.	32b-JJJ	.	.
.	16r	.	.
.	72b-LLL	24r	24r
.	72cc	.	.
.	72gg-JJ	.	.
.	12bb-J	12ee-	72ee-LLL
.	.	.	72ccc
.	.	.	72eee-J
.	.	.	24fff-JJ 24fffn 24ggg-
*	*	*	*tremolo
.	4bb-	4r	32eee-LLL
.	.	.	32fff- 32fffn 32ggg-
.	.	.	32eee-
.	.	.	32fff-JJJ 32fffn 32ggg-
*	*	*	*Xtremolo
.	.	.	8ddd
=252	=252	=252	=252
*	*^	*	*
2.r	32A#XLLL	4rc	8raa	8rc
.	32d	.	.	.
.	32g#XJJJ	.	.	.
.	32raa	.	.	.
.	72g#LLL	.	24raa	24rc
.	72a#X	.	.	.
.	72ddJJ	.	.	.
.	12gg#XJ	.	12ff#X	48ff#LLL
.	.	.	.	48ccc#XJ
.	.	.	.	24fff#XJJ
*	*clefF4	*	*	*
.	32GG#XLLL	8rEE	8raa	8rc
.	32E	.	.	.
.	32A#XJJJ	.	.	.
*	*clefG2	*	*	*
.	32raa	.	.	.
.	72dLLL	8d	24raa	24rc
.	72g#	.	.	.
.	72a#JJ	.	.	.
.	12ddJ	.	12cc#X	48cc#LLL
.	.	.	.	48ff#J
.	.	.	.	24ccc#JJ
*	*clefF4	*	*	*
.	8c#XL	32c#LLL	4raa	4rc
.	.	32E	.	.
.	.	32GG#	.	.
.	.	32E	.	.
.	8A#J	32A#	.	.
.	.	32E	.	.
.	.	32GG#	.	.
.	.	32EJJJ	.	.
=253	=253	=253	=253	=253
2.r	4d	16dLL	24raa	12rc
.	.	.	12eL	.
.	.	32g#XL	.	.
.	.	.	.	24rc
.	.	32d	.	.
.	.	32A#X	24fnk	24c#X
.	.	32E	.	.
.	.	.	[12g#XJ	[12d
.	.	32GG#X	.	.
.	.	32GG#JJJ	.	.
.	8rc	32GGG#XLLL	4g#]	8d]
.	.	32GG#	.	.
.	.	32GG#	.	.
.	.	32E	.	.
.	8d	32d	.	8rc
.	.	32E	.	.
.	.	32GG#	.	.
.	.	32EJJJ	.	.
.	8c#XL	32c#LLL	24raa	12rc
.	.	32d	.	.
.	.	.	12eL	.
.	.	32g#	.	.
.	.	.	.	24rc
.	.	32d	.	.
.	8A#J	32A#	24fk	24c#
.	.	32E	.	.
.	.	.	12g#J	12d
.	.	32GG#	.	.
.	.	32EJJJ	.	.
*	*	*	*v	*v
*	*clefG2	*	*
=254	=254	=254	=254
*^	*	*	*
8BL	32BLLL	12raa	24rc	4r
.	32C#X	.	.	.
.	.	.	12c#XL	.
.	32GG#X	.	.	.
.	.	24raa	.	.
.	32C#	.	.	.
8BJ	32B	24a#X	[24dk	.
.	32C#	.	.	.
.	.	12b	12dJ]	.
.	32GG#	.	.	.
.	32GG#JJJ	.	.	.
8rc	32GGG#XLLL	12raa	24rc	[2cc#X
.	32GG#	.	.	.
.	.	.	12c#L	.
.	32GG#	.	.	.
.	.	24raa	.	.
.	32C#	.	.	.
8B	32B	24a#	24dk	.
.	32C#	.	.	.
.	.	12b	12e#XJ	.
.	32GG#	.	.	.
.	32C#JJJ	.	.	.
8A#XL	32A#LLL	12raa	24rc	.
.	32C#	.	.	.
.	.	.	12c#L	.
.	32GG#	.	.	.
.	.	24raa	.	.
.	32C#	.	.	.
8F##XJ	32F##	24a#	24dL	.
.	32C#	.	.	.
.	.	12b	24e#	.
.	32GG#	.	.	.
.	.	.	24f##XJJ	.
.	32C#JJJ	.	.	.
=255	=255	=255	=255	=255
*	*	*	*^	*
8BL	32BLLL	12raa	24rc	4r	6cc#]
.	32C#X	.	.	.	.
.	.	.	12c#XL	.	.
.	32GG#X	.	.	.	.
.	.	24raa	.	.	.
.	32C#	.	.	.	.
8BJ	32B	24a#X	24dL	.	.
.	32C#	.	.	.	.
.	.	12b	24e#X	.	[12dd
.	32B	.	.	.	.
.	.	.	24f##XJJ	.	.
.	32e#XJJJ	.	.	.	.
8rc	32a#XLLL	12raa	4a#	4r	6dd]
.	32e#	.	.	.	.
.	32B	.	.	.	.
.	.	24raa	.	.	.
.	32e#	.	.	.	.
8B	32B	24cc#X	.	.	.
.	32C#	.	.	.	.
.	.	12dd	.	.	[12ee#X
.	32GG#	.	.	.	.
.	32C#JJJ	.	.	.	.
8BL	32BLLL	12raa	4d	24r	6ee#]
.	32C#	.	.	.	.
.	.	.	.	12a#\L	.
.	32GG#	.	.	.	.
.	.	24raa	.	.	.
.	32C#	.	.	.	.
8BJ	32B	24dd	.	24b\L	.
.	32e#	.	.	.	.
.	.	12ee#X	.	24cc#\	12ff##X
.	32a#	.	.	.	.
.	.	.	.	24dd\JJ	.
.	32e#JJJ	.	.	.	.
*	*	*	*v	*v	*
=256	=256	=256	=256	=256
8fnL	32fLLL	12raa	24rc	[2.bb-X
.	32B	.	.	.
.	.	.	12gnL	.
.	32Fn	.	.	.
.	.	24raa	.	.
.	32B	.	.	.
8fJ	32f	24een	[24a-Xk	.
.	32B	.	.	.
.	.	12ffn	12a-J]	.
.	32F	.	.	.
.	32GGnJJJ	.	.	.
8rc	32GGGLLL	12raa	24rc	.
.	32GG	.	.	.
.	.	.	12gL	.
.	32F	.	.	.
.	.	24raa	.	.
.	32B	.	.	.
8f	32f	24ee	24a-k	.
.	32B	.	.	.
.	.	12ff	12bJ	.
.	32F	.	.	.
.	32BJJJ	.	.	.
8eL	32eLLL	12raa	24rc	.
.	32B	.	.	.
.	.	.	12gL	.
.	32F	.	.	.
.	.	24raa	.	.
.	32B	.	.	.
8c#XJ	32c#	24ee	24a-L	.
.	32B	.	.	.
.	.	12ff	24b	.
.	32F	.	.	.
.	.	.	24cc#XJJ	.
.	32BJJJ	.	.	.
*	*	*v	*v	*
=257	=257	=257	=257
8fL	32fLLL	24r	2bb-]
.	32B	.	.
.	.	12gL	.
.	32F	.	.
.	32B	.	.
8fJ	32f	24a-XL	.
.	32B	.	.
.	.	24b	.
.	32F	.	.
.	.	24cc#XJJ	.
.	32BJJJ	.	.
8rc	16rEE	20eeL	.
.	.	20b	.
.	32FLLL	.	.
.	32B	.	.
.	.	20cc#	.
8f	32f	.	.
.	.	20ee	.
.	32B	.	.
.	32F	.	.
.	.	20ffJ	.
.	32BJJJ	.	.
8fL	32fLLL	4aa-X	4aa-X
.	32B	.	.
.	32F	.	.
.	32B	.	.
8fJ	32f	.	.
*clefG2	*	*	*
.	32b	.	.
.	32ff	.	.
.	32bJJJ	.	.
*clefF4	*	*	*
=258	=258	=258	=258
*	*	*^	*
4f	32fLLL	12raa	24rc	4aa-X
.	32B	.	.	.
.	.	.	12gL	.
.	32F	.	.	.
.	.	24raa	.	.
.	32BJJ	.	.	.
.	16r	24ee	[24a-Xk	.
.	.	12ff	12a-J]	.
.	32FLL	.	.	.
.	32GGJJJ	.	.	.
8rc	32DDLLL	12raa	24rc	[2gg
.	32GG	.	.	.
.	.	.	12gL	.
.	32F	.	.	.
.	.	24raa	.	.
.	32B	.	.	.
8f	32f	24ee	24a-k	.
.	32B	.	.	.
.	.	12ff	12bJ	.
.	32F	.	.	.
.	32BJJJ	.	.	.
8eL	32eLLL	12raa	24rc	.
.	32B	.	.	.
.	.	.	12gL	.
.	32F	.	.	.
.	.	24raa	.	.
.	32B	.	.	.
8c#XJ	32c#	24ee	24a-L	.
.	32B	.	.	.
.	.	12ff	24b	.
.	32F	.	.	.
.	.	.	24cc#XJJ	.
.	32BJJJ	.	.	.
*v	*v	*	*	*
*clefG2	*	*	*
=259	=259	=259	=259
*^	*	*	*
*	*^	*	*	*
4f	32fLLL	4r	12raa	24rc	6gg]
.	32B	.	.	.	.
.	.	.	.	12gL	.
.	32F	.	.	.	.
.	.	.	24raa	.	.
.	32BJJ	.	.	.	.
.	16r	.	24ee	24a-XL	.
.	.	.	12ff	24b	[12aa-X
.	32fLL	.	.	.	.
.	.	.	.	24cc#XJJ	.
.	32bJJJ	.	.	.	.
4e 4ee	32eLLL	8r	12raa	8ee	6aa-]
.	32b	.	.	.	.
.	32f	.	.	.	.
.	.	.	24raa	.	.
.	32b	.	.	.	.
.	32f	4f/	24gg	8rc	.
.	32B	.	.	.	.
.	.	.	12aa-X	.	[12b [12bb
.	32F	.	.	.	.
.	32BJJJ	.	.	.	.
4A-X 4a-X	32rc	.	12raa	24rc	6b] 6bb]
.	32BLLL	.	.	.	.
.	.	.	.	12eeL	.
.	32F	.	.	.	.
.	.	.	24raa	.	.
.	32B	.	.	.	.
.	32f	8f/	24aa-	24ffL	.
.	32b	.	.	.	.
.	.	.	12bb	24gg	12cc#X 12ccc#X
.	32ff	.	.	.	.
.	.	.	.	24aa-JJ	.
.	32bJJJ	.	.	.	.
*v	*v	*v	*	*	*
*clefF4	*	*	*
=260	=260	=260	=260
*^	*	*	*^
4f	32fLLL	12raa	24rc	[2.ee [2.eee	4rc
.	32B	.	.	.	.
.	.	.	12gL	.	.
.	32F	.	.	.	.
.	.	24raa	.	.	.
.	32BJJ	.	.	.	.
.	16r	24ee	[24a-Xk	.	.
.	.	12ff	12a-J]	.	.
.	32FLL	.	.	.	.
.	32GGJJJ	.	.	.	.
8rc	32CC#XLLL	12raa	24rc	.	[2G
.	32GG	.	.	.	.
.	.	.	12gL	.	.
.	32F	.	.	.	.
.	.	24raa	.	.	.
.	32B	.	.	.	.
8f	32f	24ee	24a-k	.	.
.	32B	.	.	.	.
.	.	12ff	12bJ	.	.
.	32F	.	.	.	.
.	32BJJJ	.	.	.	.
8eL	32eLLL	12raa	24rc	.	.
.	32B	.	.	.	.
.	.	.	12gL	.	.
.	32F	.	.	.	.
.	.	24raa	.	.	.
.	32B	.	.	.	.
8c#XJ	32c#	24ee	24a-L	.	.
.	32B	.	.	.	.
.	.	12ff	24b	.	.
.	32F	.	.	.	.
.	.	.	24cc#XJJ	.	.
.	32BJJJ	.	.	.	.
*	*	*v	*v	*	*
*clefG2	*	*	*	*
=261	=261	=261	=261	=261
4f	32fLLL	24r	2ee] 2eee]	6G]
.	32B	.	.	.
.	.	12gL	.	.
.	32F	.	.	.
.	32BJJ	.	.	.
.	16r	24a-XL	.	.
.	.	24b	.	[12A-X
.	32fLL	.	.	.
.	.	24cc#XJJ	.	.
.	32bJJJ	.	.	.
8raa	32ffLLL	8ee	.	6A-]
.	32b	.	.	.
.	32f	.	.	.
.	32b	.	.	.
8f	32f	8r	.	.
.	32B	.	.	.
.	.	.	.	[12B
.	32F	.	.	.
.	32BJJJ	.	.	.
8fL	32fLLL	4r	4a-X 4aa-X	6B]
.	32B	.	.	.
.	32F	.	.	.
.	32B	.	.	.
8fJ	32f	.	.	.
.	32b	.	.	.
.	.	.	.	12c#X
.	32ff	.	.	.
.	32bJJJ	.	.	.
*clefF4	*	*	*	*
=262	=262	=262	=262	=262
*	*	*^	*	*
*	*	*	*^	*	*
4f	32fLLL	24raa	8rc	24r	4raa	[4e
.	32B	.	.	.	.	.
.	.	24gLL	.	[12g\	.	.
.	32F	.	.	.	.	.
.	.	24ee	.	.	.	.
.	32BJJ	.	.	.	.	.
.	16r	24ff	12ff	24g\LL]	.	.
.	.	24a-XJJ	.	24a-\JJ	.	.
.	32FLL	.	.	.	.	.
.	.	24raa	24rc	24r	.	.
.	32GGJJJ	.	.	.	.	.
8rc	32DDLLL	24raa	8rc	24r	[2gg	8e]
.	32GG	.	.	.	.	.
.	.	24gLL	.	[12g\	.	.
.	32F	.	.	.	.	.
.	.	24ee	.	.	.	.
.	32B	.	.	.	.	.
8f	32f	24ff	12ff	24g\LL]	.	8rc
.	32B	.	.	.	.	.
.	.	24a-	.	24a-\	.	.
.	32F	.	.	.	.	.
.	.	24bJJ	24rc	24b\JJ	.	.
.	32BJJJ	.	.	.	.	.
8eL	32eLLL	24raa	8rc	24r	.	4rc
.	32B	.	.	.	.	.
.	.	24gLL	.	[12g\L	.	.
.	32F	.	.	.	.	.
.	.	24ee	.	.	.	.
.	32B	.	.	.	.	.
8c#XJ	32c#	32ffL	8ff	32g\LL]	.	.
.	32B	32a-	.	32a-\	.	.
.	32F	32b	.	32b\	.	.
.	32BJJJ	32cc#XJJJ	.	32cc#\JJJ	.	.
*clefG2	*	*	*	*	*	*
=263	=263	=263	=263	=263	=263	=263
4raa	32fLLL	24raa	8rc	24r	8gg]	4rc
.	32B	.	.	.	.	.
.	.	24gLL	.	[12g\L	.	.
.	32F	.	.	.	.	.
.	.	24ee	.	.	.	.
.	32BJJ	.	.	.	.	.
.	16r	32ffL	8ff	32g\LL]	4aa-X	.
.	.	32a-X	.	32a-\	.	.
.	32fLL	32b	.	32b\	.	.
.	32bJJJ	32cc#XJJJ	.	32cc#\JJJ	.	.
4e 4ee	32eLLL	24raa	8rc	24r	.	4rc
.	32b	.	.	.	.	.
.	.	24bLL	.	[12b\L	.	.
.	32f	.	.	.	.	.
.	.	24gg	.	.	.	.
.	32b	.	.	.	.	.
.	32f	24aa-X	8aa-	24b\L_	4bb	.
.	32B	.	.	.	.	.
.	.	24b	.	24b\JJ]	.	.
.	32F	.	.	.	.	.
.	.	24ffJJ	.	24r	.	.
.	32BJJJ	.	.	.	.	.
4A-X 4a-X	32rc	24raa	8rc	24r	.	4rc
.	32BLLL	.	.	.	.	.
.	.	24cc#LL	.	[12cc#\L	.	.
.	32F	.	.	.	.	.
.	.	24gg	.	.	.	.
.	32B	.	.	.	.	.
.	32f	24aa-	8aa-	24cc#\L_	8ccc#X	.
.	32b	.	.	.	.	.
.	.	24cc#	.	12cc#\JJ]	.	.
.	32ff	.	.	.	.	.
.	.	24ffJJ	.	.	.	.
.	32bJJJ	.	.	.	.	.
*clefF4	*	*	*	*	*	*
=264	=264	=264	=264	=264	=264	=264
4f	32fLLL	24raa	8rc	24r	[2.ee [2.eee	4rc
.	32B	.	.	.	.	.
.	.	24gLL	.	[12g\	.	.
.	32F	.	.	.	.	.
.	.	24ee	.	.	.	.
.	32BJJ	.	.	.	.	.
.	16r	24ff	12ff	24g\LL]	.	.
.	.	24a-XJJ	.	24a-\JJ	.	.
.	32FLL	.	.	.	.	.
.	.	24raa	24rc	24r	.	.
.	32GGJJJ	.	.	.	.	.
8rc	32CC#XLLL	24raa	8rc	24r	.	[2G
.	32GG	.	.	.	.	.
.	.	24gLL	.	[12g\	.	.
.	32F	.	.	.	.	.
.	.	24ee	.	.	.	.
.	32B	.	.	.	.	.
8f	32f	24ff	12ff	24g\LL]	.	.
.	32B	.	.	.	.	.
.	.	24a-	.	24a-\	.	.
.	32F	.	.	.	.	.
.	.	24bJJ	24rc	24b\JJ	.	.
.	32BJJJ	.	.	.	.	.
8eL	32eLLL	24raa	8rc	24r	.	.
.	32B	.	.	.	.	.
.	.	24gLL	.	[12g\L	.	.
.	32F	.	.	.	.	.
.	.	24ee	.	.	.	.
.	32B	.	.	.	.	.
8c#XJ	32c#	32ffL	8ff	32g\LL]	.	.
.	32B	32a-	.	32a-\	.	.
.	32F	32b	.	32b\	.	.
.	32BJJJ	32cc#XJJJ	.	32cc#\JJJ	.	.
*	*	*v	*v	*v	*	*
*clefG2	*	*	*	*
=265	=265	=265	=265	=265
4f	32fLLL	8ee	2ee] 2eee]	8G]
.	32B	.	.	.
.	32F	.	.	.
.	32BJJ	.	.	.
.	16r	8r	.	4A-X
.	32fLL	.	.	.
.	32bJJJ	.	.	.
8raa	32ffLLL	4r	.	.
.	32b	.	.	.
.	32f	.	.	.
.	32b	.	.	.
8f	32f	.	.	4B
.	32B	.	.	.
.	32F	.	.	.
.	32BJJJ	.	.	.
8fL	32fLLL	4r	4a-X 4aa-X	.
.	32B	.	.	.
.	32F	.	.	.
.	32B	.	.	.
8fJ	32f	.	.	8c#X
.	32b	.	.	.
.	32ff	.	.	.
.	32bJJJ	.	.	.
*v	*v	*	*	*
*clefF4	*clefF4	*	*
=266	=266	=266	=266
2.r	32fLLL	8raa	[2.e
.	32B	.	.
.	32F	.	.
.	32B	.	.
.	32f	4g	.
.	32B	.	.
.	32F	.	.
.	32GGJJJ	.	.
.	8CC#X	.	.
.	8r	8a-X	.
.	4r	8bL	.
.	.	8cc#XJ	.
=267	=267	=267	=267
2.r	2.r	40gLLL	2.e_
.	.	40a-X	.
.	.	40b	.
.	.	40cc#X	.
.	.	40eeJJJ	.
.	.	8raa	.
.	.	4raa	.
.	.	4raa	.
*	*	*v	*v
=268||	=268||	=268||
*M3/8	*M3/8	*M3/8
*	*	*^
4.r	4.r	4.ryy	8e]
.	.	.	8r
.	.	.	80d-XLLLL
.	.	.	80e--
.	.	.	80f
.	.	.	80g
.	.	.	80b-XJJJJ
.	.	.	16r
*	*	*v	*v
=269	=269	=269
4.r	16C#X 16Bn 16f	80gLLLL
.	.	80a-X
.	.	80bn
.	.	80cc#X
.	.	80eenJJJJ
.	16r	16r
.	8r	80dd-XLLLL
.	.	80ee--
.	.	80ff
.	.	80gg
.	.	80bb-XJJJJ
.	.	16r
.	.	32qqg/LLL
.	.	32qqa-/
.	.	32qqbn/
.	.	32qqcc#/
.	8qG/ 8qA-X 8qB 8qc#X 8qen	32qqeen/JJJ
.	8C#	32ggLLL
.	.	32aa-X
.	.	32bbn
.	.	32ccc#XJJJ
=270	=270	=270
*	*	*^
4.r	8GG 8F 8B 8a-X	8ee 8eee	16rc
.	.	.	8A-XL
.	8r	8raa	.
.	.	.	8B
.	8r	8raa	.
.	.	.	16c#XJk
=271	=271	=271	=271
4.r	[4.BBB-X [4.BB-X	16raa	[4.A-X [4.d [4.e
.	.	8cc-XL	.
.	.	8dd	.
.	.	16eeJk	.
=272	=272	=272	=272
4.r	8BBB-] 8BB-]	[8ggL	8A-] 8d] 8e]
.	8r	16ggJk]	8rc
.	.	16raa	.
.	8r	80B-XLLLL	8rc
.	.	80c-X	.
.	.	80d	.
.	.	80e	.
.	.	80gJJJJ	.
.	.	16raa	.
*	*	*v	*v
=273	=273	=273
4.r	16AA#X 16G#X 16d	80eLLLL
.	.	80f
.	.	80g#X
.	.	80a#X
.	.	80cc#XJJJJ
.	16r	16r
.	8r	80b-XLLLL
.	.	80cc-X
.	.	80dd
.	.	80ee
.	.	80ggnJJJJ
.	.	16r
.	.	32qqee/LLL
.	.	32qqff/
.	.	32qqgg#X/
.	.	32qqaa#X/
.	8qE/ 8qF 8qG#X 8qA#X 8qc#X	32qqccc#X/JJJ
.	8AA#	32eeeLLL
.	.	32fff
.	.	32ggg#X
.	.	32aaa#XJJJ
=274	=274	=274
4.r	8GGn 8F 8B 8a-X	16ccc#X 16cccc#X
.	.	8A-XL
.	8r	.
.	.	8B
.	8r	.
.	.	16c#XJk
=275	=275	=275
*	*	*^
4.r	4.BBB-X 4.BB-X	[4.e	4.A-X 4.d
=276	=276	=276	=276
4.r	4.GGG 4.GG	4.e]	4.F 4.Bn
=277	=277	=277	=277
4.r	4.BBB-X 4.BB-X	4.f	4.A-X 4.d
*	*	*v	*v
=278||	=278||	=278||
*M2/8	*M2/8	*M2/8
4r	8GG 8F	8A-XL 8B 8c#X 8e
.	8r	8A-J 8B 8c# 8e 8f
=279	=279	=279
.	.	[8qe/
4r	8BB-X 8A-X	8c-XL 8d 8e] 8g 8b-X
.	8r	8c-J 8d 8e 8g 8a-X
=280	=280	=280
4r	8BB-X 8A-X	8c-XL 8d 8e 8g
.	8r	8c-J 8d 8e 8g 8a-X
=281	=281	=281
.	.	[8qg/
4r	8D-X 8c-X	8e--L 8f 8g] 8b-X 8dd-X
.	8r	8e--J 8f 8g 8b- 8cc-X
=282	=282	=282
*	*^	*
4r	24rc	8GG 8F 8Bn	8a-XL 8b 8cc#X 8ee
.	24A-XLL	.	.
.	24BJJ	.	.
.	24c#XLL	8rEE	8a-J 8b 8cc# 8ee 8ff
.	24eJJ	.	.
.	24rc	.	.
=283	=283	=283	=283
.	.	.	[8qee/
4r	24rc	8BB-X 8A-X 8d	8cc-XL 8dd 8ee] 8gg 8bb-X
.	24c-XLL	.	.
.	24dJJ	.	.
.	24eLL	8rEE	8cc-J 8dd 8ee 8gg 8aa-X
.	24gJJ	.	.
.	24rc	.	.
=284	=284	=284	=284
4r	24rc	8BB-X 8A-X 8d	8a-XL 8cc-X 8dd 8ee 8gg
.	24c-XLL	.	.
.	24dJJ	.	.
.	24eLL	8rEE	8cc-J 8dd 8ee 8gg 8aa-X
.	24gJJ	.	.
.	24rc	.	.
=285	=285	=285	=285
.	.	.	[8qgg/
4r	24rc	8D-X 8c-X 8f	8ee--L 8ff 8gg] 8bb-X 8ddd-X
.	24e--LL	.	.
.	24fJJ	.	.
.	24gLL	8rEE	8ee--J 8ff 8gg 8bb- 8ccc-X
.	24b-XJJ	.	.
.	24rc	.	.
*	*clefG2	*	*
=286	=286	=286	=286
.	.	.	[8qaa#X/
4r	24raa	8En 8dn 8g#X	8ffL 8gg#X 8aa#] 8ccc#X 8eeen
.	24fLL	.	.
.	24g#JJ	.	.
.	24a#XLL	8rc	8ffJ 8gg# 8aa# 8ccc# 8ddd
.	24cc#XJJ	.	.
.	24raa	.	.
=287	=287	=287	=287
.	.	.	[8qccc#X/
4r	24raa	8Gn 8f 8b	8aa-XL 8bb 8ccc#] 8eee 8ggg
.	24a-XLL	.	.
.	24bJJ	.	.
.	24cc#XLL	8rc	8aa-J 8bb 8ccc# 8eee 8fff
.	24eeJJ	.	.
.	24raa	.	.
*	*v	*v	*
=288	=288	=288
4r	8r	8r
.	8qe/ 8qf 8qg#X 8qa#X 8qcc#X	16qqee/LL
.	.	16qqff/
.	.	16qqgg#X/
.	.	16qqaa#X/
.	.	16qqccc#X/JJ
.	[8A#X	8eee
=289	=289	=289
4r	8A#]	8eeeL
.	8r	32eeeLL
.	.	32fff
.	.	32ggg#X
.	.	32aaa#XJJJ
*	*clefF4	*
=290	=290	=290
4r	16GG 16C#X 16A-X	16ccc#X 16eee 16aaa-X 16cccc#X
.	16r	32r
.	.	32c#X 32e 32a-X
.	40A-LLL	[8d [8f [8b-X
.	40C#	.
.	40GG	.
.	40AA-X	.
.	40CC#XJJJ	.
=291	=291	=291
4r	40GGGLLL	8dL] 8f] 8b-]
.	40CC#X	.
.	40AA-X	.
.	40EE	.
.	40BB-XJJJ	.
.	[8c-X	[8eJ [8g [8cc-X
=292	=292	=292
4r	8c-]	8e] 8g] 8cc-]
*	*clefG2	*
.	8qe/ 8qf 8qg#X 8qa#X 8qcc#X	16qqee/LL
.	.	16qqff/
.	.	16qqgg#X/
.	.	16qqaa#X/
.	.	16qqccc#X/JJ
.	[8A#X	8eee
=293	=293	=293
4r	8A#]	8eeeL
.	8r	32eeeLL
.	.	32fff
.	.	32ggg#X
.	.	32aaa#XJJJ
*	*clefF4	*
=294	=294	=294
4r	16GG 16C#X 16A-X	16ccc#X 16eee 16aaa-X 16cccc#X
.	16r	32r
.	.	32c#X 32e 32a-X
.	40A-LLL	[8d [8f [8b-X
.	40C#	.
.	40GG	.
.	40AA-X	.
.	40CC#XJJJ	.
=295	=295	=295
4r	40GGGLLL	8dL] 8f] 8b-]
.	40CC#X	.
.	40AA-X	.
.	40EE	.
.	40BB-XJJJ	.
.	[8c-X	8eJ 8g 8cc-X
=296	=296	=296
*	*^	*
4r	16c-KL]	8rEE	16fKL 16a-X 16dd-X
.	32r	.	32r
.	32A#XJkk	.	[32dnJkk 32f##X 32a#X 32ddn
.	[8G#X	48G#LLL	8d_ [8g#X [8b [8ee
.	.	48D	.
.	.	48FF##X	.
.	.	48CC#X	.
.	.	48DD	.
.	.	48FFF##XJJJ	.
=297	=297	=297	=297
4r	8G#L]	40CCC#XLLL	8dL] 8g#] 8b] 8ee]
.	.	40FFF##X	.
.	.	40DD	.
.	.	40AAA#X	.
.	.	40EEJJJ	.
.	8GnJ	8rEE	[8fnJ 8a#X 8cc#X 8ffn
=298	=298	=298	=298
4r	16FKL	16rEE	16fKL] 16b 16dd 16gg
.	32r	32rEE	32r
.	.	[8qGGG\ [8qCC#X	.
.	32EJkk 32e	32GGG_ 32CC#_	[32a-XJkk 32cc#X 32ee 32aa-X
.	[8D [8d	8GGG_ 8CC#_	8a-_ [8dd [8ff [8bb-X
=299	=299	=299	=299
4r	4D_ 4d_	4GGG_ 4CC#_	4a-_ 4dd_ 4ff_ 4bb-_
=300	=300	=300	=300
4r	8D] 8d]	8GGG] 8CC#]	8a-] 8dd] 8ff] 8bb-]
.	8D 8d	8GGG 8CC#X 8AA-X	8r
=301	=301	=301	=301
4r	8DL 8d	8GGGL 8CC#X 8AA-X	4r
.	8DJ 8d	8GGGJ 8CC# 8AA-	.
=302	=302	=302	=302
4r	16DKL 16d	8GGG 8CC#X 8AA-X	16r
.	32r	.	32r
.	32EJkk 32e	.	[32a-X 32cc#X 32ee 32aa-X
.	[8D [8d	8rEE	8a-_ [8dd [8ff [8bb-X
=303	=303	=303	=303
4r	4D_ 4d_	4rEE	4a-_ 4dd_ 4ff_ 4bb-_
=304	=304	=304	=304
4r	8D] 8d]	8rEE	8a-] 8dd] 8ff] 8bb-]
.	8D 8d	8GGG 8CC#X 8AA-X	8r
=305	=305	=305	=305
4r	8DL 8d	8GGGL 8CC#X 8AA-X	4r
.	8DJ 8d	8GGGJ 8CC# 8AA-	.
=306	=306	=306	=306
*	*	*	*^
4r	8D 8d	8GGG 8CC#X 8AA-X	8raa	8rc
.	8rc	8rEE	8a-X 8bn 8dd	16eLL
.	.	.	.	16A-XJJ
*	*v	*v	*	*
=307	=307	=307	=307
4r	4r	8dL 8f 8b-X	8rc
.	.	8a-XJ 8bn 8dd	16eLL
.	.	.	16A-XJJ
*	*	*v	*v
=308	=308	=308
4r	8r	8d 8f 8b-X
.	8qG/ 8qA-X 8qB 8qc#X 8qe	16qqg/LL
.	.	16qqa-X/
.	.	16qqbn/
.	.	16qqcc#X/
.	.	16qqee/JJ
.	[8C#X	8gg
=309	=309	=309
4r	8C#]	8ggL
.	8r	32ggLL
.	.	32aa-X
.	.	32bb
.	.	32ccc#XJJJ
=310	=310	=310
*	*^	*
.	.	[8qGGG\ [8qCC#X [8qAA-X	.
4r	16DKL 16d	8GGG] 8CC#] 8AA-]	16eeKL 16aa-X 16bb 16eee
.	32r	.	32r
.	32EJkk 32e	.	[32a-XJkk 32cc#X 32ee 32aa-
.	[8D [8d	8rEE	8a-_ [8dd [8ff [8bb-X
=311	=311	=311	=311
4r	4D_ 4d_	4rEE	4a-_ 4dd_ 4ff_ 4bb-_
=312	=312	=312	=312
4r	8D] 8d]	8rEE	8a-] 8dd] 8ff] 8bb-]
.	8D 8d	8GGG 8CC#X 8AA-X	8r
=313	=313	=313	=313
4r	8DL 8d	8GGGL 8CC#X 8AA-X	4r
.	8DJ 8d	8GGGJ 8CC# 8AA-	.
=314	=314	=314	=314
*	*	*	*^
4r	8D 8d	8GGG 8CC#X 8AA-X	8raa	8rc
.	8rc	8rEE	8a-X 8bn 8dd	16eLL
.	.	.	.	16A-XJJ
*	*v	*v	*	*
=315	=315	=315	=315
4r	4r	8dL 8f 8b-X	8rc
.	.	8a-XJ 8bn 8dd	16eLL
.	.	.	16A-XJJ
*	*	*v	*v
=316	=316	=316
4r	8r	8d 8f 8b-X
.	8qG/ 8qA-X 8qB 8qc#X 8qe	16qqg/LL
.	.	16qqa-X/
.	.	16qqbn/
.	.	16qqcc#X/
.	.	16qqee/JJ
.	[8C#X	8gg
=317	=317	=317
4r	8C#]	8ggL
.	8r	32ggLL
.	.	32aa-X
.	.	32bb
.	.	32ccc#XJJJ
=318	=318	=318
4r	8GG 8C#X 8A-X 8d	8ee 8aa-X 8bb 8eee
.	8qG/ 8qA-X 8qB 8qc#X 8qe	16qqg/LL
.	.	16qqa-X/
.	.	16qqb/
.	.	16qqcc#X/
.	.	16qqee/JJ
.	[8C#	8gg
=319	=319	=319
4r	8C#]	8ggL
.	8r	40ggLL
.	.	40aa-X
.	.	40bb
.	.	40ccc#X
.	.	40eeeJJJ
=320	=320	=320
*	*^	*
4r	8EE-X 8AAn 8F-X 8B-X	8rEE	8gg 8cccn 8fff-X 8ggg
.	8En 8en	8AAA 8DD#X 8BB-X	8r
=321	=321	=321	=321
4r	8EL 8e	8AAAL 8DD#X 8BB-X	4r
.	8EJ 8e	8AAAJ 8DD# 8BB-	.
=322	=322	=322	=322
*	*	*	*^
4r	8E 8e	8AAA 8DD#X 8BB-X	8raa	8rc
.	8rc	8rEE	8b-X 8cc#X 8ee	16f#XLL
.	.	.	.	16B-XJJ
*	*v	*v	*	*
=323	=323	=323	=323
4r	4r	8eL 8g 8ccn	8rc
.	.	8b-XJ 8cc#X 8ee	16f#XLL
.	.	.	16B-XJJ
*	*	*v	*v
=324	=324	=324
4r	8r	8e 8g 8ccn
.	8qA/ 8qB-X 8qc#X 8qd#X 8qf#X	16qqa/LL
.	.	16qqb-X/
.	.	16qqcc#X/
.	.	16qqdd#X/
.	.	16qqff#X/JJ
.	[8D#X	8aa
=325	=325	=325
4r	8D#]	8aaL
.	8r	40aaLL
.	.	40bb-X
.	.	40ccc#X
.	.	40ddd#X
.	.	40fff#XJJJ
=326	=326	=326
*	*	*^
4r	8FFn 8BBn 8G-X 8cn	8aa 8dddn 8ggg-X 8aaa	8rc
.	8r	8ccn 8dd#X 8ff#X	16g#XLL
.	.	.	16cJJ
=327	=327	=327	=327
4r	4r	8f#XL 8a 8ddn	8rc
.	.	8ccJ 8dd#X 8ff#X	16g#XLL
.	.	.	16cJJ
*	*	*v	*v
=328	=328	=328
*	*^	*
4r	8rc	8rEE	8f#X 8a 8ddn
.	.	.	16qqffn/LL
.	.	.	16qqgg-X/
.	.	.	16qqaa/
.	.	.	16qqbb/
.	.	.	16qqddd/JJ
.	[8d [8dd	40dLLL 40dd	8fff
.	.	40a	.
.	.	40e-X	.
.	.	40A	.
.	.	40E-XJJJ	.
=329	=329	=329	=329
4r	8.dL] 8.dd]	8FF	8fffL
.	.	8rEE	48fffLL
.	.	.	48ggg-X
.	.	.	48aaa
.	16G-XJk 16g-X	.	48bbb
.	.	.	48dddd
.	.	.	48ffffJJJ
*	*v	*v	*
=330||	=330||	=330||
*M3/8	*M3/8	*M3/8
4.r	40CC#XLLL	32%3r
.	40GGn	.
.	40C#X	.
.	40A-X	.
.	.	32%3bbb-X 32%3dddd 32%3ffff 32%3aaaa-X
.	40dJJJ	.
.	8r	.
.	.	32%3dddL 32%3aaa-X 32%3bbbn 32%3eeee
.	40CC#LLL	.
.	40GG	.
.	.	32%3eeeJ 32%3aaa- 32%3bbb 32%3dddd
.	40C#	.
.	40A-	.
.	40dJJJ	.
=331	=331	=331
4.r	8r	32%3aa-XL 32%3ddd 32%3fff 32%3bbb-X
.	.	32%3bb-XJ 32%3ddd 32%3fff 32%3aaa-X
.	40CC#XLLL	.
.	40GG	.
.	40C#X	.
.	.	32%3ddL 32%3aa- 32%3bbn 32%3eee
.	40A-X	.
.	40dJJJ	.
.	8r	.
.	.	32%3eeJ 32%3aa- 32%3bb 32%3ddd
=332	=332	=332
4.r	40CC#XLLL	32%3a-XL 32%3dd 32%3ff 32%3bb-X
.	40GG	.
.	40C#X	.
.	40A-X	.
.	.	32%3eeeJ 32%3aaa-X 32%3bbb 32%3dddd
.	40dJJJ	.
.	8r	.
.	.	32%3aa-XL 32%3ddd 32%3fff 32%3bbb-X
.	40CC#LLL	.
.	40GG	.
.	.	32%3bb-J 32%3ddd 32%3fff 32%3aaa-
.	40C#	.
.	40A-	.
.	40dJJJ	.
=333	=333	=333
4.r	8r	32%3ddL 32%3aa-X 32%3bbn 32%3eee
.	.	32%3eeJ 32%3aa- 32%3bb 32%3ddd
.	40CC#XLLL	.
.	40GG	.
.	40C#X	.
.	.	32%3a-XL 32%3dd 32%3ff 32%3bb-X
.	40A-X	.
.	40dJJJ	.
.	8r	.
.	.	32%3b-XJ 32%3dd 32%3ff 32%3aa-X
=334	=334	=334
4.r	40CC#XLLL	32%3dL 32%3a-X 32%3bn 32%3ee
.	40GG	.
.	40C#X	.
.	40A-X	.
.	.	32%3bb-XJ 32%3ddd 32%3fff 32%3aaa-X
.	40dJJJ	.
.	8r	.
.	.	32%3ddL 32%3aa-X 32%3bbn 32%3eee
.	40CC#LLL	.
.	40GG	.
.	.	32%3eeJ 32%3aa- 32%3bb 32%3ddd
.	40C#	.
.	40A-	.
.	40dJJJ	.
=335	=335	=335
*	*^	*
4r	8rc	8rEE	8a-X 8dd 8ff 8bb-X
.	8A-X 8a-X	8DD-X 8GG 8E--	8r
=336	=336	=336	=336
4r	8A-XL 8a-X	8DD-XL 8GG 8E--	4r
.	8A-J 8a-	8DD-J 8GG 8E--	.
=337	=337	=337	=337
4r	16A-XKL 16a-X	8DD-X 8GG 8E--	16r
.	32r	.	32r
.	32B-XJkk 32b-X	.	[32ee-- 32gg 32bb-X 32eee--
.	[8A- [8a-	8rEE	8ee--_ [8aa-X [8ccc-X [8fff-X
=338	=338	=338	=338
4r	4A-_ 4a-_	4rEE	4ee--_ 4aa-_ 4ccc-_ 4fff-_
=339	=339	=339	=339
4r	8A-] 8a-]	8rEE	8ee--] 8aa-] 8ccc-] 8fff-]
.	8A-X 8a-X	8DD-X 8GG 8E--	8r
=340	=340	=340	=340
4r	8A-XL 8a-X	8DD-XL 8GG 8E--	4r
.	8A-J 8a-	8DD-J 8GG 8E--	.
=341	=341	=341	=341
*	*	*	*^
4r	8A-X 8a-X	8DD-X 8GG 8E--	8raa	8rc
.	8rc	8rEE	8ee-- 8ffn 8aa-X	16b-XLL
.	.	.	.	16e--JJ
*	*v	*v	*	*
=342	=342	=342	=342
4r	4r	8a-XL 8cc-X 8ff-X	8rc
.	.	8ee--J 8ffn 8aa-X	16b-XLL
.	.	.	16e--JJ
*	*	*v	*v
*	*clefG2	*
=343	=343	=343
4r	8r	8a-X 8cc-X 8ff-X
.	8qd-X/ 8qe-- 8qf 8qg 8qb-X	16qqdd-X/LL
.	.	16qqee--/
.	.	16qqffn/
.	.	16qqgg/
.	.	16qqbb-X/JJ
.	[8G	8ddd-X
=344	=344	=344
4r	8G]	8ddd-XL
.	8r	32ddd-LL
.	.	32eee--
.	.	32fff
.	.	32gggJJJ
*	*clefF4	*
=345	=345	=345
*	*^	*
.	.	[8qDD-X\ [8qGG [8qE--	.
4r	16A-XKL 16a-X	8DD-] 8GG] 8E--]	16bb-XKL 16eee-- 16fff 16bbb-X
.	32r	.	32r
.	32B-XJkk 32b-X	.	[32ee--Jkk 32gg 32bb-X 32eee--
.	[8A- [8a-	8rEE	8ee--_ [8aa-X [8ccc-X [8fff-X
=346	=346	=346	=346
4r	4A-_ 4a-_	4rEE	4ee--_ 4aa-_ 4ccc-_ 4fff-_
=347	=347	=347	=347
4r	8A-] 8a-]	8rEE	8ee--] 8aa-] 8ccc-] 8fff-]
.	8A-X 8a-X	8DD-X 8GG 8E--	8r
=348	=348	=348	=348
4r	8A-XL 8a-X	8DD-XL 8GG 8E--	4r
.	8A-J 8a-	8DD-J 8GG 8E--	.
=349	=349	=349	=349
*	*	*	*^
4r	8A-X 8a-X	8DD-X 8GG 8E--	8raa	8rc
.	8rc	8rEE	8ee-- 8ffn 8aa-X	16b-XLL
.	.	.	.	16e--JJ
*	*v	*v	*	*
=350	=350	=350	=350
4r	4r	8a-XL 8cc-X 8ff-X	8rc
.	.	8ee--J 8ffn 8aa-X	16b-XLL
.	.	.	16e--JJ
*	*	*v	*v
*	*clefG2	*
=351	=351	=351
4r	8r	8a-X 8cc-X 8ff-X
.	8qd-X/ 8qe-- 8qf 8qg 8qb-X	16qqdd-X/LL
.	.	16qqee--/
.	.	16qqffn/
.	.	16qqgg/
.	.	16qqbb-X/JJ
.	[8G	8ddd-X
=352	=352	=352
4r	8G]	8ddd-XL
.	8r	32ddd-LL
.	.	32eee--
.	.	32fff
.	.	32gggJJJ
*	*clefF4	*
=353	=353	=353
4r	8DD-X 8GG 8E-- 8A-X	8bb-X 8eee-- 8fff 8bbb-X
*	*clefG2	*
.	8qd-X/ 8qe-- 8qf 8qg 8qb-X	16qqdd-X/LL
.	.	16qqee--/
.	.	16qqff/
.	.	16qqgg/
.	.	16qqbb-/JJ
.	[8G	8ddd-X
=354	=354	=354
4r	8G]	8ddd-XL
.	8r	40ddd-LL
.	.	40eee--
.	.	40fff
.	.	40ggg
.	.	40bbb-XJJJ
*	*clefF4	*
=355	=355	=355
*	*^	*
4r	8AA 8D#X 8B-X 8en	8rEE	8ccc#X 8fff#X 8bbb-X 8cccc#X
.	8B-X 8b-X	8EE-X 8AA 8F-X	8r
=356	=356	=356	=356
4r	8B-XL 8b-X	8EE-XL 8AA 8F-X	4r
.	8B-J 8b-	8EE-J 8AA 8F-	.
=357	=357	=357	=357
*	*	*	*^
4r	8B-X 8b-X	8EE-X 8AA 8F-X	8raa	8rc
.	8rc	8rEE	8ff-X 8gg 8bb-X	16ccnLL
.	.	.	.	16f-XJJ
*	*v	*v	*	*
=358	=358	=358	=358
4r	4r	8b-XL 8dd-X 8gg-X	8rc
.	.	8ff-XJ 8ggn 8bb-X	16ccLL
.	.	.	16f-XJJ
*	*	*v	*v
*	*clefG2	*
=359	=359	=359
4r	8r	8b-X 8dd-X 8gg-X
.	.	16qqee-X/LL
.	.	16qqff-X/
.	.	16qqggn/
.	.	16qqaa/
.	8qe-X/ 8qf-X 8qg 8qa 8qcc	16qqccc/JJ
.	[8A	8eee-X
=360	=360	=360
4r	8A]	8eee-XL
.	8r	40eee-LL
.	.	40fff-X
.	.	40ggg
.	.	40aaa
.	.	40ccccJJJ
*	*clefF4	*
=361	=361	=361
*	*	*^
4r	8BB 8E#X 8c 8f#X	8ddd#X 8ggg#X 8cccc#X 8dddd#X	8rc
.	8r	8gg-X 8aa 8ccc#X	16ddLL
.	.	.	16g-XJJ
=362	=362	=362	=362
4r	4r	8ccL 8ee-X 8aa-X	8rc
.	.	8gg-XJ 8aan 8ccc	16ddLL
.	.	.	16g-XJJ
*	*	*v	*v
*	*clefG2	*
=363	=363	=363
*	*^	*
4r	8raa	8rc	8cc 8ee-X 8aa-X
.	.	.	16qqbb/LL
.	.	.	16qqccc/
.	.	.	16qqddd#X/
.	.	.	16qqeee#X/
.	.	.	16qqggg#X/JJ
.	[8g#X [8gg#X	40g#LLL 40gg#	8bbb
.	.	40dd#X	.
.	.	40an	.
.	.	40d#X	.
.	.	40AJJJ	.
=364	=364	=364	=364
4r	8.g#L] 8.gg#]	8BB	8bbbL
.	.	8rc	40bbbLL
.	.	.	40cccc
.	.	.	40dddd#X
.	16cJk 16cc	.	.
.	.	.	40eeee#X
.	.	.	40gggg#XJJJ
*	*v	*v	*
*	*clefF4	*
=365||	=365||	=365||
4.r	32GGGnLLL	32%3r
.	32CC#X	.
.	32AA-X	.
.	32DJJJ	32%3eeee 32%3aaaa-X 32%3bbbb 32%3ddddd
.	8r	.
.	.	32%3aaa-XL 32%3dddd 32%3ffff 32%3bbbb-X
.	32GGGLLL	.
.	32CC#	32%3bbb-XJ 32%3dddd 32%3ffff 32%3aaaa-X
.	32AA-	.
.	32DJJJ	.
=366	=366	=366
4.r	8r	32%3dddL 32%3aaa-X 32%3bbbn 32%3eeee
.	.	32%3eeeJ 32%3aaa- 32%3bbb 32%3dddd
.	32GGGLLL	.
.	32CC#X	.
.	32AA-X	32%3aa-XL 32%3ddd 32%3fff 32%3bbb-X
.	32DJJJ	.
.	8r	.
.	.	32%3bb-XJ 32%3ddd 32%3fff 32%3aaa-X
=367	=367	=367
4.r	32GGGLLL	32%3ddL 32%3aa-X 32%3bbn 32%3eee
.	32CC#X	.
.	32AA-X	.
.	32DJJJ	32%3bbb-XJ 32%3dddd 32%3ffff 32%3aaaa-X
.	8r	.
.	.	32%3dddL 32%3aaa-X 32%3bbbn 32%3eeee
.	32GGGLLL	.
.	32CC#	32%3eeeJ 32%3aaa- 32%3bbb 32%3dddd
.	32AA-	.
.	32DJJJ	.
=368	=368	=368
4.r	8r	32%3aa-XL 32%3ddd 32%3fff 32%3bbb-X
.	.	32%3bb-XJ 32%3ddd 32%3fff 32%3aaa-X
.	32GGGLLL	.
.	32CC#X	.
.	32AA-X	32%3ddL 32%3aa-X 32%3bbn 32%3eee
.	32DJJJ	.
.	8r	.
.	.	32%3eeJ 32%3aa- 32%3bb 32%3ddd
=369	=369	=369
4.r	32GGGLLL	32%3a-XL 32%3dd 32%3ff 32%3bb-X
.	32CC#X	.
.	32AA-X	.
.	32DJJJ	32%3eeeJ 32%3aaa-X 32%3bbbn 32%3dddd
.	8r	.
.	.	32%3aa-XL 32%3ddd 32%3fff 32%3bbb-X
.	32GGGLLL	.
.	32CC#	32%3bb-XJ 32%3ddd 32%3fff 32%3aaa-X
.	32AA-	.
.	32DJJJ	.
=370	=370	=370
*	*^	*
4r	8rc	8rEE	4r
.	8D 8d	8GGG 8CC#X 8AA-X	.
=371	=371	=371	=371
4r	8DL 8d	8GGGL 8CC#X 8AA-X	4r
.	8DJ 8d	8GGGJ 8CC# 8AA-	.
=372	=372	=372	=372
*M3/8	*M3/8	*M3/8	*M3/8
4.r	8DL 8d	8GGGL 8CC#X 8AA-X	32%3r
.	.	.	32%3ee 32%3aa-X 32%3bbn 32%3ddd
.	8r	8r	.
.	.	.	32%3a-XL 32%3dd 32%3ff 32%3bb-X
.	8r	32GGGLLL	.
.	.	32CC#	32%3b-XJ 32%3dd 32%3ff 32%3aa-X
.	.	32AA-	.
.	.	32DJJJ	.
=373	=373	=373	=373
*M2/8	*M2/8	*M2/8	*M2/8
4r	8rc	8rEE	4r
.	8D 8d	8GGG 8CC#X 8AA-X	.
=374	=374	=374	=374
4r	8DL 8d	8GGGL 8CC#X 8AA-X	4r
.	8DJ 8d	8GGGJ 8CC# 8AA-	.
=375	=375	=375	=375
*	*	*	*^
4r	8D 8d	8GGG 8CC#X 8AA-X	8raa	8rc
.	8rc	8rEE	8a-X 8bn 8dd	16eLL
.	.	.	.	16A-XJJ
*	*v	*v	*	*
=376	=376	=376	=376
4r	4r	8dL 8f 8b-X	8rc
.	.	8a-XJ 8bn 8dd	16eLL
.	.	.	16A-XJJ
=377	=377	=377	=377
4r	4r	8dL 8f 8b-X	8rc
.	.	8a-XJ 8bn 8dd	16eLL
.	.	.	16A-XJJ
=378	=378	=378	=378
4r	4r	8dL 8f 8b-X	8rc
.	.	8a-XJ 8bn 8dd	16eLL
.	.	.	16A-XJJ
*	*	*v	*v
=379	=379	=379
4r	4r	4r
=380	=380	=380
.	8qG/ 8qA-X 8qB 8qc#X 8qe	16qqg/LL
.	.	16qqa-X/
.	.	16qqb/
.	.	16qqcc#X/
.	.	16qqee/JJ
4r	[4C#X	4gg
=381	=381	=381
4r	4C#]	4gg
=382	=382	=382
4r	4r	16ggLL
.	.	16aa-X
.	.	16bb
.	.	16ccc#XJJ
=383	=383	=383
*	*^	*
*	*	*^	*
*	*	*	*^	*
*	*	*	*	*^	*
.	16qqGGG/LL	.	.	.	[4qGGG	.
.	16qqGG/	.	.	[4qGG	.	.
.	16qqC#X/	.	[8.qC#	.	.	.
.	16qqF/	[8qF	.	.	.	.
.	[16qqB/JJ	.	.	.	16qqGGG_	.
*	*	*	*	*	*	*^
4r	4B_	4F_	4C#_	4GG_	4GGG_	[4ff [4aa-X [4bb [4ccc#X [4eee	[4f [4a-X [4b [4cc#X [4ee
=384	=384	=384	=384	=384	=384	=384	=384
4r	4B_	4F_	4C#_	4GG_	4GGG_	4ff_ 4aa-_ 4bb_ 4ccc#_ 4eee_	4f_ 4a-_ 4b_ 4cc#_ 4ee_
=385	=385	=385	=385	=385	=385	=385	=385
4r	4B_	4F_	4C#_	4GG_	4GGG_	4ff_ 4aa-_ 4bb_ 4ccc#_ 4eee_	4f_ 4a-_ 4b_ 4cc#_ 4ee_
=386	=386	=386	=386	=386	=386	=386	=386
4r	4B]	4F]	4C#]	4GG]	4GGG]	4ff] 4aa-] 4bb] 4ccc#] 4eee]	4f] 4a-] 4b] 4cc#] 4ee]
*	*	*	*	*v	*v	*	*
*	*	*	*v	*v	*	*
*	*	*v	*v	*	*
*	*v	*v	*	*
*	*	*v	*v
==	==	==
*-	*-	*-
!!!system-decoration: {(*)}
!!!ENC: Bryan Jacob Bell
!!!END: November 2021 to April 2022
!!!PED: Günter Philipp
!!!PTL: Ausgewählte Klavierwerke (Edition Peters)
